
(Header)
(Generated by gcodetools from Inkscape.)
(Using default header. To add your own header create file "header" in the output dir.)
M3
(Header end.)
G21 (All units in mm)

(Start cutting path id: path3563 at depth: -1.5)
(path id: path3563 at depth step: -0.5)
(path len: 230.64912)
(Change tool to Cylindrical cutter)

G00 Z5.000000
G00 X79.100247 Y17.917373
(Subpath start)
G01 Z-0.500000 F100.0(Penetrate)
G03 X79.960130 Y17.802038 Z-0.500000 I4.702107 J31.793456 F800.000000
G03 X80.403589 Y17.775435 Z-0.500000 I0.443460 J3.682832
G03 X81.686656 Y18.052313 Z-0.500000 I0.000000 J3.111327
G03 X82.678515 Y18.816326 Z-0.500000 I-1.126180 J2.487867
G03 X84.093364 Y21.289173 Z-0.500000 I-5.987131 J5.066738
G03 X85.782841 Y27.569299 Z-0.500000 I-41.361125 J14.494269
G03 X86.146170 Y29.819436 Z-0.500000 I-46.371736 J8.642035
G03 X87.323155 Y38.829875 Z-0.500000 I-745.755909 J101.996148
G01 X88.199950 Y31.496305 Z-0.500000
G03 X89.334888 Y23.432809 Z-0.500000 I174.111717 J20.394641
G03 X90.261600 Y18.958269 Z-0.500000 I54.786746 J9.013515
G03 X93.610122 Y11.727667 Z-0.500000 I20.259990 J4.991830
G03 X96.588737 Y10.205295 Z-0.500000 I2.978614 J2.152735
G03 X98.077656 Y10.568750 Z-0.500000 I-0.000000 J3.231465
G03 X99.716759 Y11.861264 Z-0.500000 I-2.561326 J4.933720
G01 X99.148026 Y16.072155 Z-0.500000
G02 X98.669157 Y14.075983 Z-0.500000 I-38.507077 J8.182099
G02 X98.342324 Y13.138725 Z-0.500000 I-6.484216 J1.735504
G02 X97.462187 Y11.792613 Z-0.500000 I-3.936915 J1.613309
G02 X96.730918 Y11.482756 Z-0.500000 I-0.731270 J0.707979
G02 X95.168483 Y12.374062 Z-0.500000 I0.000000 J1.815106
G02 X92.655010 Y18.390507 Z-0.500000 I20.365692 J12.041362
G02 X93.171579 Y23.287348 Z-0.500000 I381.815422 J-37.802133
G02 X93.863566 Y29.272579 Z-0.500000 I834.811693 J-93.484684
G02 X95.350169 Y39.943717 Z-0.500000 I350.094240 J-43.332757
G02 X96.162187 Y44.034346 Z-0.500000 I48.766365 J-7.554550
G02 X97.238818 Y46.249363 Z-0.500000 I5.810597 J-1.455137
G02 X98.318626 Y46.778522 Z-0.500000 I1.079808 J-0.837154
G02 X98.529112 Y46.767345 Z-0.500000 I-0.000000 J-1.987548
G02 X98.958449 Y46.683895 Z-0.500000 I-0.270020 J-2.535372
G01 X99.835244 Y49.853890 Z-0.500000
G03 X99.393277 Y49.925552 Z-0.500000 I-8.917751 J-53.600280
G03 X99.100632 Y49.948517 Z-0.500000 I-0.292645 J-1.853143
G03 X97.989915 Y49.404121 Z-0.500000 I0.000000 J-1.405283
G03 X95.806731 Y45.690315 Z-0.500000 I13.345965 J-10.344111
G03 X94.834899 Y42.443713 Z-0.500000 I13.609363 J-5.842557
G03 X93.081560 Y30.408098 Z-0.500000 I189.939026 J-33.815690
G02 X92.713383 Y27.084968 Z-0.500000 I-397.927523 J42.405310
G03 X92.323252 Y23.689605 Z-0.500000 I14119.043998 J-1624.014316
G02 X92.281280 Y23.315919 Z-0.500000 I-15.579208 J1.560638
G02 X91.967793 Y20.992741 Z-0.500000 I-113.259862 J14.100405
G02 X90.959384 Y25.937589 Z-0.500000 I55.386227 J13.870227
G02 X88.010372 Y46.116134 Z-0.500000 I850.190348 J134.556608
G01 X87.204670 Y44.649419 Z-0.500000
G03 X86.457725 Y44.757345 Z-0.500000 I-2.897652 J-17.415649
G03 X85.901326 Y44.791361 Z-0.500000 I-0.556399 J-4.533438
G03 X84.196498 Y44.321459 Z-0.500000 I-0.000000 J-3.327548
G03 X82.773304 Y42.946139 Z-0.500000 I2.220193 J-3.721505
G03 X80.842499 Y38.774520 Z-0.500000 I14.208198 J-9.108806
G03 X80.214014 Y34.571673 Z-0.500000 I13.738543 J-4.202847
G03 X80.329293 Y32.907277 Z-0.500000 I12.072933 J0.000000
G03 X80.806443 Y30.408098 Z-0.500000 I25.035649 J3.484734
G01 X82.441545 Y32.631828 Z-0.500000
G02 X81.801527 Y35.892964 Z-0.500000 I42.338080 J10.002482
G02 X81.683235 Y37.410476 Z-0.500000 I9.674593 J1.517512
G02 X82.012019 Y39.552870 Z-0.500000 I7.144445 J-0.000000
G02 X82.749608 Y40.817036 Z-0.500000 I3.148201 J-0.989587
G02 X83.622397 Y41.392258 Z-0.500000 I1.602551 J-1.481807
G02 X84.953441 Y41.621366 Z-0.500000 I1.331043 J-3.751907
G02 X85.601754 Y41.609674 Z-0.500000 I-0.000000 J-17.978707
G02 X86.778121 Y41.526740 Z-0.500000 I-0.619737 J-17.175066
G02 X84.884841 Y27.458153 Z-0.500000 I-410.186919 J48.039203
G02 X83.981859 Y23.263782 Z-0.500000 I-34.738437 J5.284255
G02 X82.948335 Y21.506325 Z-0.500000 I-3.892654 J1.106563
G02 X81.706933 Y20.992741 Z-0.500000 I-1.241402 J1.243525
G02 X81.116951 Y21.030981 Z-0.500000 I-0.000000 J4.570386
G02 X80.237710 Y21.181995 Z-0.500000 I1.417031 J10.885398
G01 X79.100247 Y17.917373 Z-0.500000
(Subpath end)
G00 Z5.000000

(path id: path3563 at depth step: -1.0)
(path len: 230.64912)
G00 Z5.000000
G00 X79.100247 Y17.917373
(Subpath start)
G01 Z-1.000000 F100.0(Penetrate)
G03 X79.960130 Y17.802038 Z-1.000000 I4.702107 J31.793456 F800.000000
G03 X80.403589 Y17.775435 Z-1.000000 I0.443460 J3.682832
G03 X81.686656 Y18.052313 Z-1.000000 I0.000000 J3.111327
G03 X82.678515 Y18.816326 Z-1.000000 I-1.126180 J2.487867
G03 X84.093364 Y21.289173 Z-1.000000 I-5.987131 J5.066738
G03 X85.782841 Y27.569299 Z-1.000000 I-41.361125 J14.494269
G03 X86.146170 Y29.819436 Z-1.000000 I-46.371736 J8.642035
G03 X87.323155 Y38.829875 Z-1.000000 I-745.755909 J101.996148
G01 X88.199950 Y31.496305 Z-1.000000
G03 X89.334888 Y23.432809 Z-1.000000 I174.111717 J20.394641
G03 X90.261600 Y18.958269 Z-1.000000 I54.786746 J9.013515
G03 X93.610122 Y11.727667 Z-1.000000 I20.259990 J4.991830
G03 X96.588737 Y10.205295 Z-1.000000 I2.978614 J2.152735
G03 X98.077656 Y10.568750 Z-1.000000 I-0.000000 J3.231465
G03 X99.716759 Y11.861264 Z-1.000000 I-2.561326 J4.933720
G01 X99.148026 Y16.072155 Z-1.000000
G02 X98.669157 Y14.075983 Z-1.000000 I-38.507077 J8.182099
G02 X98.342324 Y13.138725 Z-1.000000 I-6.484216 J1.735504
G02 X97.462187 Y11.792613 Z-1.000000 I-3.936915 J1.613309
G02 X96.730918 Y11.482756 Z-1.000000 I-0.731270 J0.707979
G02 X95.168483 Y12.374062 Z-1.000000 I0.000000 J1.815106
G02 X92.655010 Y18.390507 Z-1.000000 I20.365692 J12.041362
G02 X93.171579 Y23.287348 Z-1.000000 I381.815422 J-37.802133
G02 X93.863566 Y29.272579 Z-1.000000 I834.811693 J-93.484684
G02 X95.350169 Y39.943717 Z-1.000000 I350.094240 J-43.332757
G02 X96.162187 Y44.034346 Z-1.000000 I48.766365 J-7.554550
G02 X97.238818 Y46.249363 Z-1.000000 I5.810597 J-1.455137
G02 X98.318626 Y46.778522 Z-1.000000 I1.079808 J-0.837154
G02 X98.529112 Y46.767345 Z-1.000000 I-0.000000 J-1.987548
G02 X98.958449 Y46.683895 Z-1.000000 I-0.270020 J-2.535372
G01 X99.835244 Y49.853890 Z-1.000000
G03 X99.393277 Y49.925552 Z-1.000000 I-8.917751 J-53.600280
G03 X99.100632 Y49.948517 Z-1.000000 I-0.292645 J-1.853143
G03 X97.989915 Y49.404121 Z-1.000000 I0.000000 J-1.405283
G03 X95.806731 Y45.690315 Z-1.000000 I13.345965 J-10.344111
G03 X94.834899 Y42.443713 Z-1.000000 I13.609363 J-5.842557
G03 X93.081560 Y30.408098 Z-1.000000 I189.939026 J-33.815690
G02 X92.713383 Y27.084968 Z-1.000000 I-397.927523 J42.405310
G03 X92.323252 Y23.689605 Z-1.000000 I14119.043998 J-1624.014316
G02 X92.281280 Y23.315919 Z-1.000000 I-15.579208 J1.560638
G02 X91.967793 Y20.992741 Z-1.000000 I-113.259862 J14.100405
G02 X90.959384 Y25.937589 Z-1.000000 I55.386227 J13.870227
G02 X88.010372 Y46.116134 Z-1.000000 I850.190348 J134.556608
G01 X87.204670 Y44.649419 Z-1.000000
G03 X86.457725 Y44.757345 Z-1.000000 I-2.897652 J-17.415649
G03 X85.901326 Y44.791361 Z-1.000000 I-0.556399 J-4.533438
G03 X84.196498 Y44.321459 Z-1.000000 I-0.000000 J-3.327548
G03 X82.773304 Y42.946139 Z-1.000000 I2.220193 J-3.721505
G03 X80.842499 Y38.774520 Z-1.000000 I14.208198 J-9.108806
G03 X80.214014 Y34.571673 Z-1.000000 I13.738543 J-4.202847
G03 X80.329293 Y32.907277 Z-1.000000 I12.072933 J0.000000
G03 X80.806443 Y30.408098 Z-1.000000 I25.035649 J3.484734
G01 X82.441545 Y32.631828 Z-1.000000
G02 X81.801527 Y35.892964 Z-1.000000 I42.338080 J10.002482
G02 X81.683235 Y37.410476 Z-1.000000 I9.674593 J1.517512
G02 X82.012019 Y39.552870 Z-1.000000 I7.144445 J-0.000000
G02 X82.749608 Y40.817036 Z-1.000000 I3.148201 J-0.989587
G02 X83.622397 Y41.392258 Z-1.000000 I1.602551 J-1.481807
G02 X84.953441 Y41.621366 Z-1.000000 I1.331043 J-3.751907
G02 X85.601754 Y41.609674 Z-1.000000 I-0.000000 J-17.978707
G02 X86.778121 Y41.526740 Z-1.000000 I-0.619737 J-17.175066
G02 X84.884841 Y27.458153 Z-1.000000 I-410.186919 J48.039203
G02 X83.981859 Y23.263782 Z-1.000000 I-34.738437 J5.284255
G02 X82.948335 Y21.506325 Z-1.000000 I-3.892654 J1.106563
G02 X81.706933 Y20.992741 Z-1.000000 I-1.241402 J1.243525
G02 X81.116951 Y21.030981 Z-1.000000 I-0.000000 J4.570386
G02 X80.237710 Y21.181995 Z-1.000000 I1.417031 J10.885398
G01 X79.100247 Y17.917373 Z-1.000000
(Subpath end)
G00 Z5.000000

(path id: path3563 at depth step: -1.5)
(path len: 230.64912)
G00 Z5.000000
G00 X79.100247 Y17.917373
(Subpath start)
G01 Z-1.500000 F100.0(Penetrate)
G03 X79.960130 Y17.802038 Z-1.500000 I4.702107 J31.793456 F800.000000
G03 X80.403589 Y17.775435 Z-1.500000 I0.443460 J3.682832
G03 X81.686656 Y18.052313 Z-1.500000 I0.000000 J3.111327
G03 X82.678515 Y18.816326 Z-1.500000 I-1.126180 J2.487867
G03 X84.093364 Y21.289173 Z-1.500000 I-5.987131 J5.066738
G03 X85.782841 Y27.569299 Z-1.500000 I-41.361125 J14.494269
G03 X86.146170 Y29.819436 Z-1.500000 I-46.371736 J8.642035
G03 X87.323155 Y38.829875 Z-1.500000 I-745.755909 J101.996148
G01 X88.199950 Y31.496305 Z-1.500000
G03 X89.334888 Y23.432809 Z-1.500000 I174.111717 J20.394641
G03 X90.261600 Y18.958269 Z-1.500000 I54.786746 J9.013515
G03 X93.610122 Y11.727667 Z-1.500000 I20.259990 J4.991830
G03 X96.588737 Y10.205295 Z-1.500000 I2.978614 J2.152735
G03 X98.077656 Y10.568750 Z-1.500000 I-0.000000 J3.231465
G03 X99.716759 Y11.861264 Z-1.500000 I-2.561326 J4.933720
G01 X99.148026 Y16.072155 Z-1.500000
G02 X98.669157 Y14.075983 Z-1.500000 I-38.507077 J8.182099
G02 X98.342324 Y13.138725 Z-1.500000 I-6.484216 J1.735504
G02 X97.462187 Y11.792613 Z-1.500000 I-3.936915 J1.613309
G02 X96.730918 Y11.482756 Z-1.500000 I-0.731270 J0.707979
G02 X95.168483 Y12.374062 Z-1.500000 I0.000000 J1.815106
G02 X92.655010 Y18.390507 Z-1.500000 I20.365692 J12.041362
G02 X93.171579 Y23.287348 Z-1.500000 I381.815422 J-37.802133
G02 X93.863566 Y29.272579 Z-1.500000 I834.811693 J-93.484684
G02 X95.350169 Y39.943717 Z-1.500000 I350.094240 J-43.332757
G02 X96.162187 Y44.034346 Z-1.500000 I48.766365 J-7.554550
G02 X97.238818 Y46.249363 Z-1.500000 I5.810597 J-1.455137
G02 X98.318626 Y46.778522 Z-1.500000 I1.079808 J-0.837154
G02 X98.529112 Y46.767345 Z-1.500000 I-0.000000 J-1.987548
G02 X98.958449 Y46.683895 Z-1.500000 I-0.270020 J-2.535372
G01 X99.835244 Y49.853890 Z-1.500000
G03 X99.393277 Y49.925552 Z-1.500000 I-8.917751 J-53.600280
G03 X99.100632 Y49.948517 Z-1.500000 I-0.292645 J-1.853143
G03 X97.989915 Y49.404121 Z-1.500000 I0.000000 J-1.405283
G03 X95.806731 Y45.690315 Z-1.500000 I13.345965 J-10.344111
G03 X94.834899 Y42.443713 Z-1.500000 I13.609363 J-5.842557
G03 X93.081560 Y30.408098 Z-1.500000 I189.939026 J-33.815690
G02 X92.713383 Y27.084968 Z-1.500000 I-397.927523 J42.405310
G03 X92.323252 Y23.689605 Z-1.500000 I14119.043998 J-1624.014316
G02 X92.281280 Y23.315919 Z-1.500000 I-15.579208 J1.560638
G02 X91.967793 Y20.992741 Z-1.500000 I-113.259862 J14.100405
G02 X90.959384 Y25.937589 Z-1.500000 I55.386227 J13.870227
G02 X88.010372 Y46.116134 Z-1.500000 I850.190348 J134.556608
G01 X87.204670 Y44.649419 Z-1.500000
G03 X86.457725 Y44.757345 Z-1.500000 I-2.897652 J-17.415649
G03 X85.901326 Y44.791361 Z-1.500000 I-0.556399 J-4.533438
G03 X84.196498 Y44.321459 Z-1.500000 I-0.000000 J-3.327548
G03 X82.773304 Y42.946139 Z-1.500000 I2.220193 J-3.721505
G03 X80.842499 Y38.774520 Z-1.500000 I14.208198 J-9.108806
G03 X80.214014 Y34.571673 Z-1.500000 I13.738543 J-4.202847
G03 X80.329293 Y32.907277 Z-1.500000 I12.072933 J0.000000
G03 X80.806443 Y30.408098 Z-1.500000 I25.035649 J3.484734
G01 X82.441545 Y32.631828 Z-1.500000
G02 X81.801527 Y35.892964 Z-1.500000 I42.338080 J10.002482
G02 X81.683235 Y37.410476 Z-1.500000 I9.674593 J1.517512
G02 X82.012019 Y39.552870 Z-1.500000 I7.144445 J-0.000000
G02 X82.749608 Y40.817036 Z-1.500000 I3.148201 J-0.989587
G02 X83.622397 Y41.392258 Z-1.500000 I1.602551 J-1.481807
G02 X84.953441 Y41.621366 Z-1.500000 I1.331043 J-3.751907
G02 X85.601754 Y41.609674 Z-1.500000 I-0.000000 J-17.978707
G02 X86.778121 Y41.526740 Z-1.500000 I-0.619737 J-17.175066
G02 X84.884841 Y27.458153 Z-1.500000 I-410.186919 J48.039203
G02 X83.981859 Y23.263782 Z-1.500000 I-34.738437 J5.284255
G02 X82.948335 Y21.506325 Z-1.500000 I-3.892654 J1.106563
G02 X81.706933 Y20.992741 Z-1.500000 I-1.241402 J1.243525
G02 X81.116951 Y21.030981 Z-1.500000 I-0.000000 J4.570386
G02 X80.237710 Y21.181995 Z-1.500000 I1.417031 J10.885398
G01 X79.100247 Y17.917373 Z-1.500000
(Subpath end)
G00 Z5.000000

(End cutting path id: path3563 at depth: -1.5)

(Start cutting path id: path3561 at depth: -1.5)
(path id: path3561 at depth step: -0.5)
(path len: 72.69747)
G00 Z5.000000
G00 X71.089341 Y17.917373
(Subpath start)
G01 Z-0.500000 F100.0(Penetrate)
G02 X72.629719 Y17.960497 Z-0.500000 I8.698174 J-283.161291 F800.000000
G02 X72.961416 Y17.964688 Z-0.500000 I0.331697 J-13.123863
G01 X76.658168 Y17.917373 Z-0.500000
G01 X77.511265 Y19.100207 Z-0.500000
G01 X75.307432 Y19.431403 Z-0.500000
G02 X76.263322 Y27.589057 Z-0.500000 I457.504445 J-49.474191
G02 X78.364363 Y43.561212 Z-0.500000 I1529.914341 J-193.126854
G01 X79.738796 Y43.845092 Z-0.500000
G01 X80.568196 Y45.027926 Z-0.500000
G01 X79.762494 Y45.027926 Z-0.500000
G02 X77.345353 Y44.983990 Z-0.500000 I-16.925005 J864.613110
G02 X76.942534 Y44.980611 Z-0.500000 I-0.402818 J24.007647
G02 X76.542699 Y44.985510 Z-0.500000 I-0.000000 J16.317900
G02 X75.117854 Y45.027926 Z-0.500000 I3.323425 J135.593550
G01 X74.288454 Y43.845092 Z-0.500000
G01 X76.421196 Y43.561212 Z-0.500000
G02 X76.106690 Y40.768457 Z-0.500000 I-327.108822 J35.423349
G03 X76.065740 Y40.391217 Z-0.500000 I22.744586 J-2.659806
G01 X75.568100 Y36.511522 Z-0.500000
G02 X73.825312 Y22.878552 Z-0.500000 I-78898.928500 J10079.209449
G02 X73.696027 Y21.939010 Z-0.500000 I-49.448859 J6.325698
G03 X73.620669 Y21.436846 Z-0.500000 I15.205924 J-2.538655
G02 X73.340568 Y19.431403 Z-0.500000 I-159.658820 J21.277262
G01 X71.942438 Y19.100207 Z-0.500000
G01 X71.089341 Y17.917373 Z-0.500000
(Subpath end)
G00 Z5.000000

(path id: path3561 at depth step: -1.0)
(path len: 72.69747)
G00 Z5.000000
G00 X71.089341 Y17.917373
(Subpath start)
G01 Z-1.000000 F100.0(Penetrate)
G02 X72.629719 Y17.960497 Z-1.000000 I8.698174 J-283.161291 F800.000000
G02 X72.961416 Y17.964688 Z-1.000000 I0.331697 J-13.123863
G01 X76.658168 Y17.917373 Z-1.000000
G01 X77.511265 Y19.100207 Z-1.000000
G01 X75.307432 Y19.431403 Z-1.000000
G02 X76.263322 Y27.589057 Z-1.000000 I457.504445 J-49.474191
G02 X78.364363 Y43.561212 Z-1.000000 I1529.914341 J-193.126854
G01 X79.738796 Y43.845092 Z-1.000000
G01 X80.568196 Y45.027926 Z-1.000000
G01 X79.762494 Y45.027926 Z-1.000000
G02 X77.345353 Y44.983990 Z-1.000000 I-16.925005 J864.613110
G02 X76.942534 Y44.980611 Z-1.000000 I-0.402818 J24.007647
G02 X76.542699 Y44.985510 Z-1.000000 I-0.000000 J16.317900
G02 X75.117854 Y45.027926 Z-1.000000 I3.323425 J135.593550
G01 X74.288454 Y43.845092 Z-1.000000
G01 X76.421196 Y43.561212 Z-1.000000
G02 X76.106690 Y40.768457 Z-1.000000 I-327.108822 J35.423349
G03 X76.065740 Y40.391217 Z-1.000000 I22.744586 J-2.659806
G01 X75.568100 Y36.511522 Z-1.000000
G02 X73.825312 Y22.878552 Z-1.000000 I-78898.928500 J10079.209449
G02 X73.696027 Y21.939010 Z-1.000000 I-49.448859 J6.325698
G03 X73.620669 Y21.436846 Z-1.000000 I15.205924 J-2.538655
G02 X73.340568 Y19.431403 Z-1.000000 I-159.658820 J21.277262
G01 X71.942438 Y19.100207 Z-1.000000
G01 X71.089341 Y17.917373 Z-1.000000
(Subpath end)
G00 Z5.000000

(path id: path3561 at depth step: -1.5)
(path len: 72.69747)
G00 Z5.000000
G00 X71.089341 Y17.917373
(Subpath start)
G01 Z-1.500000 F100.0(Penetrate)
G02 X72.629719 Y17.960497 Z-1.500000 I8.698174 J-283.161291 F800.000000
G02 X72.961416 Y17.964688 Z-1.500000 I0.331697 J-13.123863
G01 X76.658168 Y17.917373 Z-1.500000
G01 X77.511265 Y19.100207 Z-1.500000
G01 X75.307432 Y19.431403 Z-1.500000
G02 X76.263322 Y27.589057 Z-1.500000 I457.504445 J-49.474191
G02 X78.364363 Y43.561212 Z-1.500000 I1529.914341 J-193.126854
G01 X79.738796 Y43.845092 Z-1.500000
G01 X80.568196 Y45.027926 Z-1.500000
G01 X79.762494 Y45.027926 Z-1.500000
G02 X77.345353 Y44.983990 Z-1.500000 I-16.925005 J864.613110
G02 X76.942534 Y44.980611 Z-1.500000 I-0.402818 J24.007647
G02 X76.542699 Y44.985510 Z-1.500000 I-0.000000 J16.317900
G02 X75.117854 Y45.027926 Z-1.500000 I3.323425 J135.593550
G01 X74.288454 Y43.845092 Z-1.500000
G01 X76.421196 Y43.561212 Z-1.500000
G02 X76.106690 Y40.768457 Z-1.500000 I-327.108822 J35.423349
G03 X76.065740 Y40.391217 Z-1.500000 I22.744586 J-2.659806
G01 X75.568100 Y36.511522 Z-1.500000
G02 X73.825312 Y22.878552 Z-1.500000 I-78898.928500 J10079.209449
G02 X73.696027 Y21.939010 Z-1.500000 I-49.448859 J6.325698
G03 X73.620669 Y21.436846 Z-1.500000 I15.205924 J-2.538655
G02 X73.340568 Y19.431403 Z-1.500000 I-159.658820 J21.277262
G01 X71.942438 Y19.100207 Z-1.500000
G01 X71.089341 Y17.917373 Z-1.500000
(Subpath end)
G00 Z5.000000

(End cutting path id: path3561 at depth: -1.5)

(Start cutting path id: path3559 at depth: -1.5)
(path id: path3559 at depth step: -0.5)
(path len: 122.44217)
G00 Z5.000000
G00 X61.155632 Y17.917373
(Subpath start)
G01 Z-0.500000 F100.0(Penetrate)
G03 X66.789531 Y18.685724 Z-0.500000 I-0.000000 J21.039324 F800.000000
G03 X69.141568 Y20.141103 Z-0.500000 I-1.326103 J4.771367
G01 X69.188963 Y20.519610 Z-0.500000
G02 X67.448276 Y20.176324 Z-0.500000 I-3.280233 J12.048068
G02 X65.350025 Y20.046476 Z-0.500000 I-2.098251 J16.888207
G02 X65.049807 Y20.062165 Z-0.500000 I0.000000 J2.880225
G03 X64.259956 Y20.141103 Z-0.500000 I-8.592690 J-81.987381
G03 X66.107247 Y24.154253 Z-0.500000 I-18.282134 J10.847175
G03 X67.079916 Y28.515564 Z-0.500000 I-19.652124 J6.671979
G01 X68.928293 Y43.324646 Z-0.500000
G03 X72.056034 Y42.838061 Z-0.500000 I22.227471 J132.580982
G03 X72.530258 Y42.804201 Z-0.500000 I0.474225 J3.303918
G03 X73.281617 Y43.330347 Z-0.500000 I0.000000 J0.799559
G03 X74.378635 Y47.914041 Z-0.500000 I-19.453399 J7.078912
G01 X74.070572 Y48.623740 Z-0.500000
G02 X72.758416 Y45.450082 Z-0.500000 I-15.471909 J4.538811
G02 X72.127407 Y45.075238 Z-0.500000 I-0.631008 J0.343695
G02 X71.791770 Y45.088120 Z-0.500000 I-0.000000 J4.379019
G03 X70.634488 Y45.169865 Z-0.500000 I-7.167015 J-93.231992
G03 X66.799175 Y45.513414 Z-0.500000 I-33.409350 J-351.395146
G03 X65.966152 Y45.548372 Z-0.500000 I-0.833023 J-9.907556
G03 X61.234078 Y43.054465 Z-0.500000 I0.000000 J-5.736398
G03 X58.738524 Y34.997496 Z-0.500000 I11.758298 J-8.056968
G03 X58.875335 Y32.868815 Z-0.500000 I16.628771 J-0.000000
G03 X59.330952 Y30.502725 Z-0.500000 I19.325263 J2.494386
G01 X61.108238 Y32.821082 Z-0.500000
G02 X60.662594 Y35.600381 Z-0.500000 I42.089771 J8.174222
G02 X60.563204 Y37.173911 Z-0.500000 I12.406244 J1.573529
G02 X61.136298 Y41.012969 Z-0.500000 I13.145132 J-0.000000
G02 X62.340490 Y42.946139 Z-0.500000 I4.225022 J-1.290173
G02 X63.319604 Y43.507313 Z-0.500000 I1.618023 J-1.688315
G02 X65.065661 Y43.750465 Z-0.500000 I1.746057 J-6.147570
G02 X65.700653 Y43.716613 Z-0.500000 I0.000000 J-5.972337
G02 X67.222099 Y43.513900 Z-0.500000 I-3.146803 J-29.429075
G01 X65.302630 Y28.089745 Z-0.500000
G02 X63.463388 Y20.871945 Z-0.500000 I-29.079714 J3.566866
G02 X61.985031 Y19.762595 Z-0.500000 I-1.643732 J0.650763
G01 X61.155632 Y17.917373 Z-0.500000
(Subpath end)
G00 Z5.000000

(path id: path3559 at depth step: -1.0)
(path len: 122.44217)
G00 Z5.000000
G00 X61.155632 Y17.917373
(Subpath start)
G01 Z-1.000000 F100.0(Penetrate)
G03 X66.789531 Y18.685724 Z-1.000000 I-0.000000 J21.039324 F800.000000
G03 X69.141568 Y20.141103 Z-1.000000 I-1.326103 J4.771367
G01 X69.188963 Y20.519610 Z-1.000000
G02 X67.448276 Y20.176324 Z-1.000000 I-3.280233 J12.048068
G02 X65.350025 Y20.046476 Z-1.000000 I-2.098251 J16.888207
G02 X65.049807 Y20.062165 Z-1.000000 I0.000000 J2.880225
G03 X64.259956 Y20.141103 Z-1.000000 I-8.592690 J-81.987381
G03 X66.107247 Y24.154253 Z-1.000000 I-18.282134 J10.847175
G03 X67.079916 Y28.515564 Z-1.000000 I-19.652124 J6.671979
G01 X68.928293 Y43.324646 Z-1.000000
G03 X72.056034 Y42.838061 Z-1.000000 I22.227471 J132.580982
G03 X72.530258 Y42.804201 Z-1.000000 I0.474225 J3.303918
G03 X73.281617 Y43.330347 Z-1.000000 I0.000000 J0.799559
G03 X74.378635 Y47.914041 Z-1.000000 I-19.453399 J7.078912
G01 X74.070572 Y48.623740 Z-1.000000
G02 X72.758416 Y45.450082 Z-1.000000 I-15.471909 J4.538811
G02 X72.127407 Y45.075238 Z-1.000000 I-0.631008 J0.343695
G02 X71.791770 Y45.088120 Z-1.000000 I-0.000000 J4.379019
G03 X70.634488 Y45.169865 Z-1.000000 I-7.167015 J-93.231992
G03 X66.799175 Y45.513414 Z-1.000000 I-33.409350 J-351.395146
G03 X65.966152 Y45.548372 Z-1.000000 I-0.833023 J-9.907556
G03 X61.234078 Y43.054465 Z-1.000000 I0.000000 J-5.736398
G03 X58.738524 Y34.997496 Z-1.000000 I11.758298 J-8.056968
G03 X58.875335 Y32.868815 Z-1.000000 I16.628771 J-0.000000
G03 X59.330952 Y30.502725 Z-1.000000 I19.325263 J2.494386
G01 X61.108238 Y32.821082 Z-1.000000
G02 X60.662594 Y35.600381 Z-1.000000 I42.089771 J8.174222
G02 X60.563204 Y37.173911 Z-1.000000 I12.406244 J1.573529
G02 X61.136298 Y41.012969 Z-1.000000 I13.145132 J-0.000000
G02 X62.340490 Y42.946139 Z-1.000000 I4.225022 J-1.290173
G02 X63.319604 Y43.507313 Z-1.000000 I1.618023 J-1.688315
G02 X65.065661 Y43.750465 Z-1.000000 I1.746057 J-6.147570
G02 X65.700653 Y43.716613 Z-1.000000 I0.000000 J-5.972337
G02 X67.222099 Y43.513900 Z-1.000000 I-3.146803 J-29.429075
G01 X65.302630 Y28.089745 Z-1.000000
G02 X63.463388 Y20.871945 Z-1.000000 I-29.079714 J3.566866
G02 X61.985031 Y19.762595 Z-1.000000 I-1.643732 J0.650763
G01 X61.155632 Y17.917373 Z-1.000000
(Subpath end)
G00 Z5.000000

(path id: path3559 at depth step: -1.5)
(path len: 122.44217)
G00 Z5.000000
G00 X61.155632 Y17.917373
(Subpath start)
G01 Z-1.500000 F100.0(Penetrate)
G03 X66.789531 Y18.685724 Z-1.500000 I-0.000000 J21.039324 F800.000000
G03 X69.141568 Y20.141103 Z-1.500000 I-1.326103 J4.771367
G01 X69.188963 Y20.519610 Z-1.500000
G02 X67.448276 Y20.176324 Z-1.500000 I-3.280233 J12.048068
G02 X65.350025 Y20.046476 Z-1.500000 I-2.098251 J16.888207
G02 X65.049807 Y20.062165 Z-1.500000 I0.000000 J2.880225
G03 X64.259956 Y20.141103 Z-1.500000 I-8.592690 J-81.987381
G03 X66.107247 Y24.154253 Z-1.500000 I-18.282134 J10.847175
G03 X67.079916 Y28.515564 Z-1.500000 I-19.652124 J6.671979
G01 X68.928293 Y43.324646 Z-1.500000
G03 X72.056034 Y42.838061 Z-1.500000 I22.227471 J132.580982
G03 X72.530258 Y42.804201 Z-1.500000 I0.474225 J3.303918
G03 X73.281617 Y43.330347 Z-1.500000 I0.000000 J0.799559
G03 X74.378635 Y47.914041 Z-1.500000 I-19.453399 J7.078912
G01 X74.070572 Y48.623740 Z-1.500000
G02 X72.758416 Y45.450082 Z-1.500000 I-15.471909 J4.538811
G02 X72.127407 Y45.075238 Z-1.500000 I-0.631008 J0.343695
G02 X71.791770 Y45.088120 Z-1.500000 I-0.000000 J4.379019
G03 X70.634488 Y45.169865 Z-1.500000 I-7.167015 J-93.231992
G03 X66.799175 Y45.513414 Z-1.500000 I-33.409350 J-351.395146
G03 X65.966152 Y45.548372 Z-1.500000 I-0.833023 J-9.907556
G03 X61.234078 Y43.054465 Z-1.500000 I0.000000 J-5.736398
G03 X58.738524 Y34.997496 Z-1.500000 I11.758298 J-8.056968
G03 X58.875335 Y32.868815 Z-1.500000 I16.628771 J-0.000000
G03 X59.330952 Y30.502725 Z-1.500000 I19.325263 J2.494386
G01 X61.108238 Y32.821082 Z-1.500000
G02 X60.662594 Y35.600381 Z-1.500000 I42.089771 J8.174222
G02 X60.563204 Y37.173911 Z-1.500000 I12.406244 J1.573529
G02 X61.136298 Y41.012969 Z-1.500000 I13.145132 J-0.000000
G02 X62.340490 Y42.946139 Z-1.500000 I4.225022 J-1.290173
G02 X63.319604 Y43.507313 Z-1.500000 I1.618023 J-1.688315
G02 X65.065661 Y43.750465 Z-1.500000 I1.746057 J-6.147570
G02 X65.700653 Y43.716613 Z-1.500000 I0.000000 J-5.972337
G02 X67.222099 Y43.513900 Z-1.500000 I-3.146803 J-29.429075
G01 X65.302630 Y28.089745 Z-1.500000
G02 X63.463388 Y20.871945 Z-1.500000 I-29.079714 J3.566866
G02 X61.985031 Y19.762595 Z-1.500000 I-1.643732 J0.650763
G01 X61.155632 Y17.917373 Z-1.500000
(Subpath end)
G00 Z5.000000

(End cutting path id: path3559 at depth: -1.5)

(Start cutting path id: path3557 at depth: -1.5)
(path id: path3557 at depth step: -0.5)
(path len: 163.45525)
G00 Z5.000000
G00 X44.098340 Y17.964688
(Subpath start)
G01 Z-0.500000 F100.0(Penetrate)
G03 X45.354335 Y17.919777 Z-0.500000 I12.365222 J328.224221 F800.000000
G03 X45.496473 Y17.917373 Z-0.500000 I0.142138 J4.200069
G03 X48.077033 Y17.974340 Z-0.500000 I-0.000000 J58.477236
G03 X49.572380 Y18.106627 Z-0.500000 I-0.751468 J17.012173
G01 X51.325968 Y19.904534 Z-0.500000
G03 X50.384894 Y19.949714 Z-0.500000 I-4.274081 J-79.202123
G02 X48.197946 Y20.046476 Z-0.500000 I21.071645 J501.010264
G03 X50.475729 Y25.747408 Z-0.500000 I-32.627729 J16.341779
G03 X51.776213 Y31.827501 Z-0.500000 I-34.952728 J10.655241
G02 X51.800502 Y31.864151 Z-0.500000 I0.162980 J-0.081636
G01 X51.823608 Y31.874813 Z-0.500000
G02 X52.039208 Y31.748551 Z-0.500000 I0.034255 J-0.188715
G02 X52.368642 Y30.313471 Z-0.500000 I-6.578074 J-2.265400
G03 X53.967499 Y19.191566 Z-0.500000 I190.527587 J21.713889
G03 X55.022723 Y15.031259 Z-0.500000 I27.729885 J4.819451
G03 X57.187435 Y11.446008 Z-0.500000 I9.152263 J3.079846
G03 X59.311904 Y10.536492 Z-0.500000 I2.124469 J2.026431
G03 X60.786977 Y11.011928 Z-0.500000 I-0.000000 J2.525974
G03 X62.771687 Y13.044098 Z-0.500000 I-4.801345 J6.674476
G01 X61.610526 Y15.930212 Z-0.500000
G02 X60.163685 Y12.556851 Z-0.500000 I-12.699135 J3.449727
G02 X59.264509 Y12.050518 Z-0.500000 I-0.899175 J0.545236
G02 X58.165022 Y12.762276 Z-0.500000 I0.000000 J1.205095
G02 X56.112791 Y19.100207 Z-0.500000 I28.033076 J12.578371
G02 X55.283833 Y23.468199 Z-0.500000 I111.700519 J23.461199
G02 X53.790471 Y32.584513 Z-0.500000 I798.590547 J135.499202
G03 X55.394011 Y33.798139 Z-0.500000 I-6.293252 J9.981321
G03 X56.420853 Y34.902869 Z-0.500000 I-5.694953 J6.323026
G03 X57.682689 Y37.448961 Z-0.500000 I-6.606263 J4.859772
G03 X58.174441 Y40.864351 Z-0.500000 I-11.614670 J3.415390
G03 X57.051433 Y44.284748 Z-0.500000 I-5.770336 J0.000000
G03 X54.833145 Y45.406434 Z-0.500000 I-2.218288 J-1.632643
G03 X54.334065 Y45.387199 Z-0.500000 I-0.000000 J-6.484296
G03 X53.458711 Y45.311807 Z-0.500000 I3.811300 J-49.371410
G01 X53.648288 Y46.825833 Z-0.500000
G01 X51.491847 Y44.791361 Z-0.500000
G03 X47.427349 Y41.434500 Z-0.500000 I2.402566 J-7.048118
G03 X45.543867 Y34.335108 Z-0.500000 I12.438099 J-7.099392
G03 X45.612128 Y32.778048 Z-0.500000 I17.792892 J0.000000
G03 X45.875626 Y30.550040 Z-0.500000 I37.134083 J3.262127
G01 X47.866185 Y32.584513 Z-0.500000
G02 X47.660842 Y34.675847 Z-0.500000 I53.701794 J6.328613
G02 X47.605517 Y36.085703 Z-0.500000 I17.936354 J1.409856
G02 X47.931688 Y39.394641 Z-0.500000 I16.947339 J0.000000
G02 X48.695586 Y41.526740 Z-0.500000 I7.555654 J-1.504178
G02 X49.796850 Y42.781739 Z-0.500000 I3.508786 J-1.968285
G02 X51.539242 Y43.608527 Z-0.500000 I2.926645 J-3.918306
G01 X51.325968 Y41.905243 Z-0.500000
G02 X51.184252 Y40.777248 Z-0.500000 I-1362.254596 J170.573976
G03 X50.923117 Y38.593310 Z-0.500000 I170.799255 J-21.530203
G01 X49.738260 Y29.225264 Z-0.500000
G02 X47.331127 Y21.430657 Z-0.500000 I-23.157293 J2.882453
G02 X45.022529 Y20.046476 Z-0.500000 I-2.269403 J1.167728
G01 X44.098340 Y17.964688 Z-0.500000
(Subpath end)
G00 Z5.000000

(path id: path3557 at depth step: -1.0)
(path len: 163.45525)
G00 Z5.000000
G00 X44.098340 Y17.964688
(Subpath start)
G01 Z-1.000000 F100.0(Penetrate)
G03 X45.354335 Y17.919777 Z-1.000000 I12.365222 J328.224221 F800.000000
G03 X45.496473 Y17.917373 Z-1.000000 I0.142138 J4.200069
G03 X48.077033 Y17.974340 Z-1.000000 I-0.000000 J58.477236
G03 X49.572380 Y18.106627 Z-1.000000 I-0.751468 J17.012173
G01 X51.325968 Y19.904534 Z-1.000000
G03 X50.384894 Y19.949714 Z-1.000000 I-4.274081 J-79.202123
G02 X48.197946 Y20.046476 Z-1.000000 I21.071645 J501.010264
G03 X50.475729 Y25.747408 Z-1.000000 I-32.627729 J16.341779
G03 X51.776213 Y31.827501 Z-1.000000 I-34.952728 J10.655241
G02 X51.800502 Y31.864151 Z-1.000000 I0.162980 J-0.081636
G01 X51.823608 Y31.874813 Z-1.000000
G02 X52.039208 Y31.748551 Z-1.000000 I0.034255 J-0.188715
G02 X52.368642 Y30.313471 Z-1.000000 I-6.578074 J-2.265400
G03 X53.967499 Y19.191566 Z-1.000000 I190.527587 J21.713889
G03 X55.022723 Y15.031259 Z-1.000000 I27.729885 J4.819451
G03 X57.187435 Y11.446008 Z-1.000000 I9.152263 J3.079846
G03 X59.311904 Y10.536492 Z-1.000000 I2.124469 J2.026431
G03 X60.786977 Y11.011928 Z-1.000000 I-0.000000 J2.525974
G03 X62.771687 Y13.044098 Z-1.000000 I-4.801345 J6.674476
G01 X61.610526 Y15.930212 Z-1.000000
G02 X60.163685 Y12.556851 Z-1.000000 I-12.699135 J3.449727
G02 X59.264509 Y12.050518 Z-1.000000 I-0.899175 J0.545236
G02 X58.165022 Y12.762276 Z-1.000000 I0.000000 J1.205095
G02 X56.112791 Y19.100207 Z-1.000000 I28.033076 J12.578371
G02 X55.283833 Y23.468199 Z-1.000000 I111.700519 J23.461199
G02 X53.790471 Y32.584513 Z-1.000000 I798.590547 J135.499202
G03 X55.394011 Y33.798139 Z-1.000000 I-6.293252 J9.981321
G03 X56.420853 Y34.902869 Z-1.000000 I-5.694953 J6.323026
G03 X57.682689 Y37.448961 Z-1.000000 I-6.606263 J4.859772
G03 X58.174441 Y40.864351 Z-1.000000 I-11.614670 J3.415390
G03 X57.051433 Y44.284748 Z-1.000000 I-5.770336 J0.000000
G03 X54.833145 Y45.406434 Z-1.000000 I-2.218288 J-1.632643
G03 X54.334065 Y45.387199 Z-1.000000 I-0.000000 J-6.484296
G03 X53.458711 Y45.311807 Z-1.000000 I3.811300 J-49.371410
G01 X53.648288 Y46.825833 Z-1.000000
G01 X51.491847 Y44.791361 Z-1.000000
G03 X47.427349 Y41.434500 Z-1.000000 I2.402566 J-7.048118
G03 X45.543867 Y34.335108 Z-1.000000 I12.438099 J-7.099392
G03 X45.612128 Y32.778048 Z-1.000000 I17.792892 J0.000000
G03 X45.875626 Y30.550040 Z-1.000000 I37.134083 J3.262127
G01 X47.866185 Y32.584513 Z-1.000000
G02 X47.660842 Y34.675847 Z-1.000000 I53.701794 J6.328613
G02 X47.605517 Y36.085703 Z-1.000000 I17.936354 J1.409856
G02 X47.931688 Y39.394641 Z-1.000000 I16.947339 J0.000000
G02 X48.695586 Y41.526740 Z-1.000000 I7.555654 J-1.504178
G02 X49.796850 Y42.781739 Z-1.000000 I3.508786 J-1.968285
G02 X51.539242 Y43.608527 Z-1.000000 I2.926645 J-3.918306
G01 X51.325968 Y41.905243 Z-1.000000
G02 X51.184252 Y40.777248 Z-1.000000 I-1362.254596 J170.573976
G03 X50.923117 Y38.593310 Z-1.000000 I170.799255 J-21.530203
G01 X49.738260 Y29.225264 Z-1.000000
G02 X47.331127 Y21.430657 Z-1.000000 I-23.157293 J2.882453
G02 X45.022529 Y20.046476 Z-1.000000 I-2.269403 J1.167728
G01 X44.098340 Y17.964688 Z-1.000000
(Subpath end)
G00 Z5.000000

(path id: path3557 at depth step: -1.5)
(path len: 163.45525)
G00 Z5.000000
G00 X44.098340 Y17.964688
(Subpath start)
G01 Z-1.500000 F100.0(Penetrate)
G03 X45.354335 Y17.919777 Z-1.500000 I12.365222 J328.224221 F800.000000
G03 X45.496473 Y17.917373 Z-1.500000 I0.142138 J4.200069
G03 X48.077033 Y17.974340 Z-1.500000 I-0.000000 J58.477236
G03 X49.572380 Y18.106627 Z-1.500000 I-0.751468 J17.012173
G01 X51.325968 Y19.904534 Z-1.500000
G03 X50.384894 Y19.949714 Z-1.500000 I-4.274081 J-79.202123
G02 X48.197946 Y20.046476 Z-1.500000 I21.071645 J501.010264
G03 X50.475729 Y25.747408 Z-1.500000 I-32.627729 J16.341779
G03 X51.776213 Y31.827501 Z-1.500000 I-34.952728 J10.655241
G02 X51.800502 Y31.864151 Z-1.500000 I0.162980 J-0.081636
G01 X51.823608 Y31.874813 Z-1.500000
G02 X52.039208 Y31.748551 Z-1.500000 I0.034255 J-0.188715
G02 X52.368642 Y30.313471 Z-1.500000 I-6.578074 J-2.265400
G03 X53.967499 Y19.191566 Z-1.500000 I190.527587 J21.713889
G03 X55.022723 Y15.031259 Z-1.500000 I27.729885 J4.819451
G03 X57.187435 Y11.446008 Z-1.500000 I9.152263 J3.079846
G03 X59.311904 Y10.536492 Z-1.500000 I2.124469 J2.026431
G03 X60.786977 Y11.011928 Z-1.500000 I-0.000000 J2.525974
G03 X62.771687 Y13.044098 Z-1.500000 I-4.801345 J6.674476
G01 X61.610526 Y15.930212 Z-1.500000
G02 X60.163685 Y12.556851 Z-1.500000 I-12.699135 J3.449727
G02 X59.264509 Y12.050518 Z-1.500000 I-0.899175 J0.545236
G02 X58.165022 Y12.762276 Z-1.500000 I0.000000 J1.205095
G02 X56.112791 Y19.100207 Z-1.500000 I28.033076 J12.578371
G02 X55.283833 Y23.468199 Z-1.500000 I111.700519 J23.461199
G02 X53.790471 Y32.584513 Z-1.500000 I798.590547 J135.499202
G03 X55.394011 Y33.798139 Z-1.500000 I-6.293252 J9.981321
G03 X56.420853 Y34.902869 Z-1.500000 I-5.694953 J6.323026
G03 X57.682689 Y37.448961 Z-1.500000 I-6.606263 J4.859772
G03 X58.174441 Y40.864351 Z-1.500000 I-11.614670 J3.415390
G03 X57.051433 Y44.284748 Z-1.500000 I-5.770336 J0.000000
G03 X54.833145 Y45.406434 Z-1.500000 I-2.218288 J-1.632643
G03 X54.334065 Y45.387199 Z-1.500000 I-0.000000 J-6.484296
G03 X53.458711 Y45.311807 Z-1.500000 I3.811300 J-49.371410
G01 X53.648288 Y46.825833 Z-1.500000
G01 X51.491847 Y44.791361 Z-1.500000
G03 X47.427349 Y41.434500 Z-1.500000 I2.402566 J-7.048118
G03 X45.543867 Y34.335108 Z-1.500000 I12.438099 J-7.099392
G03 X45.612128 Y32.778048 Z-1.500000 I17.792892 J0.000000
G03 X45.875626 Y30.550040 Z-1.500000 I37.134083 J3.262127
G01 X47.866185 Y32.584513 Z-1.500000
G02 X47.660842 Y34.675847 Z-1.500000 I53.701794 J6.328613
G02 X47.605517 Y36.085703 Z-1.500000 I17.936354 J1.409856
G02 X47.931688 Y39.394641 Z-1.500000 I16.947339 J0.000000
G02 X48.695586 Y41.526740 Z-1.500000 I7.555654 J-1.504178
G02 X49.796850 Y42.781739 Z-1.500000 I3.508786 J-1.968285
G02 X51.539242 Y43.608527 Z-1.500000 I2.926645 J-3.918306
G01 X51.325968 Y41.905243 Z-1.500000
G02 X51.184252 Y40.777248 Z-1.500000 I-1362.254596 J170.573976
G03 X50.923117 Y38.593310 Z-1.500000 I170.799255 J-21.530203
G01 X49.738260 Y29.225264 Z-1.500000
G02 X47.331127 Y21.430657 Z-1.500000 I-23.157293 J2.882453
G02 X45.022529 Y20.046476 Z-1.500000 I-2.269403 J1.167728
G01 X44.098340 Y17.964688 Z-1.500000
(Subpath end)
G00 Z5.000000

(End cutting path id: path3557 at depth: -1.5)

(Start cutting path id: path3557 at depth: -1.5)
(path id: path3557 at depth step: -0.5)
(path len: 25.76982)
G00 Z5.000000
G00 X53.292831 Y43.987031
(Subpath start)
G01 Z-0.500000 F100.0(Penetrate)
G01 X54.027443 Y43.987031 Z-0.500000 F800.000000
G02 X55.343780 Y43.219124 Z-0.500000 I0.000000 J-1.512179
G02 X56.112791 Y40.296590 Z-0.500000 I-5.168864 J-2.922534
G02 X55.606033 Y36.613766 Z-0.500000 I-13.635700 J0.000000
G02 X54.477688 Y34.429735 Z-0.500000 I-5.859198 J1.643574
G02 X53.433523 Y33.543477 Z-0.500000 I-3.081519 J2.572330
G02 X51.918397 Y32.915709 Z-0.500000 I-2.992314 J5.079716
G01 X53.292831 Y43.987031 Z-0.500000
(Subpath end)
G00 Z5.000000

(path id: path3557 at depth step: -1.0)
(path len: 25.76982)
G00 Z5.000000
G00 X53.292831 Y43.987031
(Subpath start)
G01 Z-1.000000 F100.0(Penetrate)
G01 X54.027443 Y43.987031 Z-1.000000 F800.000000
G02 X55.343780 Y43.219124 Z-1.000000 I0.000000 J-1.512179
G02 X56.112791 Y40.296590 Z-1.000000 I-5.168864 J-2.922534
G02 X55.606033 Y36.613766 Z-1.000000 I-13.635700 J0.000000
G02 X54.477688 Y34.429735 Z-1.000000 I-5.859198 J1.643574
G02 X53.433523 Y33.543477 Z-1.000000 I-3.081519 J2.572330
G02 X51.918397 Y32.915709 Z-1.000000 I-2.992314 J5.079716
G01 X53.292831 Y43.987031 Z-1.000000
(Subpath end)
G00 Z5.000000

(path id: path3557 at depth step: -1.5)
(path len: 25.76982)
G00 Z5.000000
G00 X53.292831 Y43.987031
(Subpath start)
G01 Z-1.500000 F100.0(Penetrate)
G01 X54.027443 Y43.987031 Z-1.500000 F800.000000
G02 X55.343780 Y43.219124 Z-1.500000 I0.000000 J-1.512179
G02 X56.112791 Y40.296590 Z-1.500000 I-5.168864 J-2.922534
G02 X55.606033 Y36.613766 Z-1.500000 I-13.635700 J0.000000
G02 X54.477688 Y34.429735 Z-1.500000 I-5.859198 J1.643574
G02 X53.433523 Y33.543477 Z-1.500000 I-3.081519 J2.572330
G02 X51.918397 Y32.915709 Z-1.500000 I-2.992314 J5.079716
G01 X53.292831 Y43.987031 Z-1.500000
(Subpath end)
G00 Z5.000000

(End cutting path id: path3557 at depth: -1.5)

(Start cutting path id: path3555 at depth: -1.5)
(path id: path3555 at depth step: -0.5)
(path len: 125.42526)
G00 Z5.000000
G00 X29.113809 Y18.343196
(Subpath start)
G01 Z-0.500000 F100.0(Penetrate)
G03 X29.842836 Y18.003838 Z-0.500000 I1.895624 J3.119542 F800.000000
G03 X30.369757 Y17.917373 Z-0.500000 I0.526921 J1.562292
G03 X31.837456 Y18.706220 Z-0.500000 I0.000000 J1.759796
G03 X36.199254 Y26.717657 Z-0.500000 I-44.348261 J29.338352
G02 X39.001936 Y26.662330 Z-0.500000 I0.000000 J-71.014286
G02 X40.393646 Y26.528404 Z-0.500000 I-0.488927 J-12.378764
G03 X40.325471 Y25.676213 Z-0.500000 I123.334427 J-10.295520
G03 X40.275161 Y24.825124 Z-0.500000 I24.525112 J-1.876773
G02 X40.201036 Y23.866213 Z-0.500000 I-1957.271056 J150.817226
G03 X40.085584 Y22.317517 Z-0.500000 I259.584792 J-20.130216
G02 X39.975949 Y20.643615 Z-0.500000 I-65.797498 J3.468957
G02 X39.943401 Y20.377668 Z-0.500000 I-3.060777 J0.239636
G03 X39.847783 Y19.095778 Z-0.500000 I46.724567 J-4.129760
G03 X39.824916 Y18.343196 Z-0.500000 I12.372776 J-0.752583
G03 X40.024036 Y17.514221 Z-0.500000 I1.825146 J0.000000
G03 X40.369950 Y17.302300 Z-0.500000 I0.345914 J0.176353
G03 X40.614185 Y17.330877 Z-0.500000 I-0.000000 J1.057961
G03 X41.057167 Y17.491554 Z-0.500000 I-0.474010 J1.997824
G02 X42.768923 Y18.126452 Z-0.500000 I105.501432 J-281.818669
G02 X44.469554 Y18.721699 Z-0.500000 I20.108984 J-54.724655
G01 X44.848709 Y19.857222 Z-0.500000
G02 X44.428511 Y19.774575 Z-0.500000 I-14.619914 J73.221511
G02 X44.303674 Y19.762595 Z-0.500000 I-0.124837 J0.644453
G02 X43.486781 Y19.641117 Z-0.500000 I-1.812300 J9.379659
G02 X43.095121 Y19.620657 Z-0.500000 I-0.391660 J3.738385
G02 X42.337830 Y20.058884 Z-0.500000 I0.000000 J0.873442
G02 X41.886566 Y21.749756 Z-0.500000 I2.942183 J1.690872
G02 X42.127163 Y28.583921 Z-0.500000 I97.182579 J-0.000000
G02 X43.569063 Y45.548372 Z-0.500000 I589.292659 J-41.543647
G01 X43.237304 Y46.021507 Z-0.500000
G03 X43.096465 Y45.734392 Z-0.500000 I17.253168 J-8.641338
G03 X42.976634 Y45.453745 Z-0.500000 I3.112005 J-1.494675
G02 X42.390783 Y44.669191 Z-0.500000 I-2.485056 J1.244653
G02 X41.981354 Y44.507481 Z-0.500000 I-0.409429 J0.437455
G02 X41.681989 Y44.541033 Z-0.500000 I0.000000 J1.352275
G02 X40.630618 Y44.838673 Z-0.500000 I2.298341 J10.124315
G03 X39.117651 Y45.239688 Z-0.500000 I-6.343939 J-20.880071
G03 X38.474179 Y45.311807 Z-0.500000 I-0.643472 J-2.834580
G03 X37.154701 Y44.777811 Z-0.500000 I0.000000 J-1.897182
G03 X35.132881 Y42.047185 Z-0.500000 I7.221741 J-7.460961
G03 X33.770450 Y38.483011 Z-0.500000 I14.775086 J-7.690370
G03 X33.331899 Y34.997496 Z-0.500000 I13.631821 J-3.485515
G03 X33.402733 Y33.581500 Z-0.500000 I14.188619 J-0.000000
G03 X33.663660 Y31.780186 Z-0.500000 I20.638686 J2.070034
G01 X35.417248 Y33.672720 Z-0.500000
G02 X34.999728 Y36.634051 Z-0.500000 I51.167316 J8.724204
G02 X34.919608 Y38.072864 Z-0.500000 I12.879157 J1.438813
G02 X35.888774 Y41.401358 Z-0.500000 I6.200254 J0.000000
G02 X37.668475 Y42.378378 Z-0.500000 I1.779701 J-1.132408
G02 X38.053180 Y42.352322 Z-0.500000 I-0.000000 J-2.853125
G02 X38.545270 Y42.283751 Z-0.500000 I-10.440981 J-76.727270
G01 X39.493155 Y42.047185 Z-0.500000
G01 X39.848612 Y41.999870 Z-0.500000
G03 X40.327067 Y41.913803 Z-0.500000 I1.054621 J4.489793
G02 X41.080863 Y41.810616 Z-0.500000 I-4.405260 J-34.986216
G01 X36.981260 Y31.212429 Z-0.500000
G02 X34.932556 Y26.207083 Z-0.500000 I-147.952508 J57.635470
G02 X33.805843 Y23.831543 Z-0.500000 I-32.355433 J13.891143
G02 X32.248030 Y21.787802 Z-0.500000 I-6.500344 J3.339215
G02 X31.056974 Y21.323937 Z-0.500000 I-1.191056 J1.297190
G02 X30.574954 Y21.393408 Z-0.500000 I-0.000000 J1.706962
G02 X30.014300 Y21.655129 Z-0.500000 I0.582785 J1.979806
G01 X29.113809 Y18.343196 Z-0.500000
(Subpath end)
G00 Z5.000000

(path id: path3555 at depth step: -1.0)
(path len: 125.42526)
G00 Z5.000000
G00 X29.113809 Y18.343196
(Subpath start)
G01 Z-1.000000 F100.0(Penetrate)
G03 X29.842836 Y18.003838 Z-1.000000 I1.895624 J3.119542 F800.000000
G03 X30.369757 Y17.917373 Z-1.000000 I0.526921 J1.562292
G03 X31.837456 Y18.706220 Z-1.000000 I0.000000 J1.759796
G03 X36.199254 Y26.717657 Z-1.000000 I-44.348261 J29.338352
G02 X39.001936 Y26.662330 Z-1.000000 I0.000000 J-71.014286
G02 X40.393646 Y26.528404 Z-1.000000 I-0.488927 J-12.378764
G03 X40.325471 Y25.676213 Z-1.000000 I123.334427 J-10.295520
G03 X40.275161 Y24.825124 Z-1.000000 I24.525112 J-1.876773
G02 X40.201036 Y23.866213 Z-1.000000 I-1957.271056 J150.817226
G03 X40.085584 Y22.317517 Z-1.000000 I259.584792 J-20.130216
G02 X39.975949 Y20.643615 Z-1.000000 I-65.797498 J3.468957
G02 X39.943401 Y20.377668 Z-1.000000 I-3.060777 J0.239636
G03 X39.847783 Y19.095778 Z-1.000000 I46.724567 J-4.129760
G03 X39.824916 Y18.343196 Z-1.000000 I12.372776 J-0.752583
G03 X40.024036 Y17.514221 Z-1.000000 I1.825146 J0.000000
G03 X40.369950 Y17.302300 Z-1.000000 I0.345914 J0.176353
G03 X40.614185 Y17.330877 Z-1.000000 I-0.000000 J1.057961
G03 X41.057167 Y17.491554 Z-1.000000 I-0.474010 J1.997824
G02 X42.768923 Y18.126452 Z-1.000000 I105.501432 J-281.818669
G02 X44.469554 Y18.721699 Z-1.000000 I20.108984 J-54.724655
G01 X44.848709 Y19.857222 Z-1.000000
G02 X44.428511 Y19.774575 Z-1.000000 I-14.619914 J73.221511
G02 X44.303674 Y19.762595 Z-1.000000 I-0.124837 J0.644453
G02 X43.486781 Y19.641117 Z-1.000000 I-1.812300 J9.379659
G02 X43.095121 Y19.620657 Z-1.000000 I-0.391660 J3.738385
G02 X42.337830 Y20.058884 Z-1.000000 I0.000000 J0.873442
G02 X41.886566 Y21.749756 Z-1.000000 I2.942183 J1.690872
G02 X42.127163 Y28.583921 Z-1.000000 I97.182579 J-0.000000
G02 X43.569063 Y45.548372 Z-1.000000 I589.292659 J-41.543647
G01 X43.237304 Y46.021507 Z-1.000000
G03 X43.096465 Y45.734392 Z-1.000000 I17.253168 J-8.641338
G03 X42.976634 Y45.453745 Z-1.000000 I3.112005 J-1.494675
G02 X42.390783 Y44.669191 Z-1.000000 I-2.485056 J1.244653
G02 X41.981354 Y44.507481 Z-1.000000 I-0.409429 J0.437455
G02 X41.681989 Y44.541033 Z-1.000000 I0.000000 J1.352275
G02 X40.630618 Y44.838673 Z-1.000000 I2.298341 J10.124315
G03 X39.117651 Y45.239688 Z-1.000000 I-6.343939 J-20.880071
G03 X38.474179 Y45.311807 Z-1.000000 I-0.643472 J-2.834580
G03 X37.154701 Y44.777811 Z-1.000000 I0.000000 J-1.897182
G03 X35.132881 Y42.047185 Z-1.000000 I7.221741 J-7.460961
G03 X33.770450 Y38.483011 Z-1.000000 I14.775086 J-7.690370
G03 X33.331899 Y34.997496 Z-1.000000 I13.631821 J-3.485515
G03 X33.402733 Y33.581500 Z-1.000000 I14.188619 J-0.000000
G03 X33.663660 Y31.780186 Z-1.000000 I20.638686 J2.070034
G01 X35.417248 Y33.672720 Z-1.000000
G02 X34.999728 Y36.634051 Z-1.000000 I51.167316 J8.724204
G02 X34.919608 Y38.072864 Z-1.000000 I12.879157 J1.438813
G02 X35.888774 Y41.401358 Z-1.000000 I6.200254 J0.000000
G02 X37.668475 Y42.378378 Z-1.000000 I1.779701 J-1.132408
G02 X38.053180 Y42.352322 Z-1.000000 I-0.000000 J-2.853125
G02 X38.545270 Y42.283751 Z-1.000000 I-10.440981 J-76.727270
G01 X39.493155 Y42.047185 Z-1.000000
G01 X39.848612 Y41.999870 Z-1.000000
G03 X40.327067 Y41.913803 Z-1.000000 I1.054621 J4.489793
G02 X41.080863 Y41.810616 Z-1.000000 I-4.405260 J-34.986216
G01 X36.981260 Y31.212429 Z-1.000000
G02 X34.932556 Y26.207083 Z-1.000000 I-147.952508 J57.635470
G02 X33.805843 Y23.831543 Z-1.000000 I-32.355433 J13.891143
G02 X32.248030 Y21.787802 Z-1.000000 I-6.500344 J3.339215
G02 X31.056974 Y21.323937 Z-1.000000 I-1.191056 J1.297190
G02 X30.574954 Y21.393408 Z-1.000000 I-0.000000 J1.706962
G02 X30.014300 Y21.655129 Z-1.000000 I0.582785 J1.979806
G01 X29.113809 Y18.343196 Z-1.000000
(Subpath end)
G00 Z5.000000

(path id: path3555 at depth step: -1.5)
(path len: 125.42526)
G00 Z5.000000
G00 X29.113809 Y18.343196
(Subpath start)
G01 Z-1.500000 F100.0(Penetrate)
G03 X29.842836 Y18.003838 Z-1.500000 I1.895624 J3.119542 F800.000000
G03 X30.369757 Y17.917373 Z-1.500000 I0.526921 J1.562292
G03 X31.837456 Y18.706220 Z-1.500000 I0.000000 J1.759796
G03 X36.199254 Y26.717657 Z-1.500000 I-44.348261 J29.338352
G02 X39.001936 Y26.662330 Z-1.500000 I0.000000 J-71.014286
G02 X40.393646 Y26.528404 Z-1.500000 I-0.488927 J-12.378764
G03 X40.325471 Y25.676213 Z-1.500000 I123.334427 J-10.295520
G03 X40.275161 Y24.825124 Z-1.500000 I24.525112 J-1.876773
G02 X40.201036 Y23.866213 Z-1.500000 I-1957.271056 J150.817226
G03 X40.085584 Y22.317517 Z-1.500000 I259.584792 J-20.130216
G02 X39.975949 Y20.643615 Z-1.500000 I-65.797498 J3.468957
G02 X39.943401 Y20.377668 Z-1.500000 I-3.060777 J0.239636
G03 X39.847783 Y19.095778 Z-1.500000 I46.724567 J-4.129760
G03 X39.824916 Y18.343196 Z-1.500000 I12.372776 J-0.752583
G03 X40.024036 Y17.514221 Z-1.500000 I1.825146 J0.000000
G03 X40.369950 Y17.302300 Z-1.500000 I0.345914 J0.176353
G03 X40.614185 Y17.330877 Z-1.500000 I-0.000000 J1.057961
G03 X41.057167 Y17.491554 Z-1.500000 I-0.474010 J1.997824
G02 X42.768923 Y18.126452 Z-1.500000 I105.501432 J-281.818669
G02 X44.469554 Y18.721699 Z-1.500000 I20.108984 J-54.724655
G01 X44.848709 Y19.857222 Z-1.500000
G02 X44.428511 Y19.774575 Z-1.500000 I-14.619914 J73.221511
G02 X44.303674 Y19.762595 Z-1.500000 I-0.124837 J0.644453
G02 X43.486781 Y19.641117 Z-1.500000 I-1.812300 J9.379659
G02 X43.095121 Y19.620657 Z-1.500000 I-0.391660 J3.738385
G02 X42.337830 Y20.058884 Z-1.500000 I0.000000 J0.873442
G02 X41.886566 Y21.749756 Z-1.500000 I2.942183 J1.690872
G02 X42.127163 Y28.583921 Z-1.500000 I97.182579 J-0.000000
G02 X43.569063 Y45.548372 Z-1.500000 I589.292659 J-41.543647
G01 X43.237304 Y46.021507 Z-1.500000
G03 X43.096465 Y45.734392 Z-1.500000 I17.253168 J-8.641338
G03 X42.976634 Y45.453745 Z-1.500000 I3.112005 J-1.494675
G02 X42.390783 Y44.669191 Z-1.500000 I-2.485056 J1.244653
G02 X41.981354 Y44.507481 Z-1.500000 I-0.409429 J0.437455
G02 X41.681989 Y44.541033 Z-1.500000 I0.000000 J1.352275
G02 X40.630618 Y44.838673 Z-1.500000 I2.298341 J10.124315
G03 X39.117651 Y45.239688 Z-1.500000 I-6.343939 J-20.880071
G03 X38.474179 Y45.311807 Z-1.500000 I-0.643472 J-2.834580
G03 X37.154701 Y44.777811 Z-1.500000 I0.000000 J-1.897182
G03 X35.132881 Y42.047185 Z-1.500000 I7.221741 J-7.460961
G03 X33.770450 Y38.483011 Z-1.500000 I14.775086 J-7.690370
G03 X33.331899 Y34.997496 Z-1.500000 I13.631821 J-3.485515
G03 X33.402733 Y33.581500 Z-1.500000 I14.188619 J-0.000000
G03 X33.663660 Y31.780186 Z-1.500000 I20.638686 J2.070034
G01 X35.417248 Y33.672720 Z-1.500000
G02 X34.999728 Y36.634051 Z-1.500000 I51.167316 J8.724204
G02 X34.919608 Y38.072864 Z-1.500000 I12.879157 J1.438813
G02 X35.888774 Y41.401358 Z-1.500000 I6.200254 J0.000000
G02 X37.668475 Y42.378378 Z-1.500000 I1.779701 J-1.132408
G02 X38.053180 Y42.352322 Z-1.500000 I-0.000000 J-2.853125
G02 X38.545270 Y42.283751 Z-1.500000 I-10.440981 J-76.727270
G01 X39.493155 Y42.047185 Z-1.500000
G01 X39.848612 Y41.999870 Z-1.500000
G03 X40.327067 Y41.913803 Z-1.500000 I1.054621 J4.489793
G02 X41.080863 Y41.810616 Z-1.500000 I-4.405260 J-34.986216
G01 X36.981260 Y31.212429 Z-1.500000
G02 X34.932556 Y26.207083 Z-1.500000 I-147.952508 J57.635470
G02 X33.805843 Y23.831543 Z-1.500000 I-32.355433 J13.891143
G02 X32.248030 Y21.787802 Z-1.500000 I-6.500344 J3.339215
G02 X31.056974 Y21.323937 Z-1.500000 I-1.191056 J1.297190
G02 X30.574954 Y21.393408 Z-1.500000 I-0.000000 J1.706962
G02 X30.014300 Y21.655129 Z-1.500000 I0.582785 J1.979806
G01 X29.113809 Y18.343196 Z-1.500000
(Subpath end)
G00 Z5.000000

(End cutting path id: path3555 at depth: -1.5)

(Start cutting path id: path3555 at depth: -1.5)
(path id: path3555 at depth step: -0.5)
(path len: 28.42586)
G00 Z5.000000
G00 X36.933865 Y28.657507
(Subpath start)
G01 Z-0.500000 F100.0(Penetrate)
G01 X41.507413 Y40.627786 Z-0.500000 F800.000000
G01 X40.535829 Y28.657507 Z-0.500000
G01 X36.933865 Y28.657507 Z-0.500000
(Subpath end)
G00 Z5.000000

(path id: path3555 at depth step: -1.0)
(path len: 28.42586)
G00 Z5.000000
G00 X36.933865 Y28.657507
(Subpath start)
G01 Z-1.000000 F100.0(Penetrate)
G01 X41.507413 Y40.627786 Z-1.000000 F800.000000
G01 X40.535829 Y28.657507 Z-1.000000
G01 X36.933865 Y28.657507 Z-1.000000
(Subpath end)
G00 Z5.000000

(path id: path3555 at depth step: -1.5)
(path len: 28.42586)
G00 Z5.000000
G00 X36.933865 Y28.657507
(Subpath start)
G01 Z-1.500000 F100.0(Penetrate)
G01 X41.507413 Y40.627786 Z-1.500000 F800.000000
G01 X40.535829 Y28.657507 Z-1.500000
G01 X36.933865 Y28.657507 Z-1.500000
(Subpath end)
G00 Z5.000000

(End cutting path id: path3555 at depth: -1.5)

(Start cutting path id: path3553 at depth: -1.5)
(path id: path3553 at depth step: -0.5)
(path len: 247.63469)
G00 Z5.000000
G00 X10.084101 Y17.917373
(Subpath start)
G01 Z-0.500000 F100.0(Penetrate)
G03 X10.739873 Y17.873992 Z-0.500000 I0.815973 J7.356606 F800.000000
G03 X11.103078 Y17.870061 Z-0.500000 I0.363204 J16.777158
G03 X13.213116 Y18.665784 Z-0.500000 I-0.000000 J3.195483
G03 X15.202683 Y21.465875 Z-0.500000 I-4.936789 J5.614643
G03 X15.940499 Y23.847632 Z-0.500000 I-16.086633 J6.288449
G03 X16.814088 Y28.468253 Z-0.500000 I-55.467836 J12.879812
G03 X17.398993 Y32.724588 Z-0.500000 I-6872.422928 J946.575375
G03 X18.354402 Y40.060025 Z-0.500000 I-543.831853 J74.561701
G02 X19.148455 Y22.668328 Z-0.500000 I-3002.363021 J-145.792850
G02 X19.254894 Y18.816326 Z-0.500000 I-127.450203 J-5.449183
G01 X20.416053 Y20.614237 Z-0.500000
G02 X21.716852 Y25.296688 Z-0.500000 I57.224949 J-13.375362
G02 X26.743190 Y40.201963 Z-0.500000 I579.601944 J-187.152487
G01 X26.506218 Y38.120176 Z-0.500000
G02 X26.382417 Y37.051305 Z-0.500000 I-34.598823 J3.465761
G02 X25.961184 Y33.909289 Z-0.500000 I-631.876604 J83.113139
G03 X24.302991 Y21.563936 Z-0.500000 I36602.281040 J-4922.599360
G02 X24.254990 Y21.276621 Z-0.500000 I-4.485704 J0.601737
G03 X24.006781 Y19.565963 Z-0.500000 I29.995214 J-5.225510
G03 X23.946926 Y18.532450 Z-0.500000 I8.892830 J-1.033513
G03 X24.167584 Y17.525268 Z-0.500000 I2.408941 J0.000000
G03 X24.515658 Y17.302300 Z-0.500000 I0.348074 J0.160205
G03 X24.687238 Y17.324866 Z-0.500000 I0.000000 J0.663590
G02 X24.965904 Y17.396927 Z-0.500000 I4.386537 J-16.388220
G02 X25.608150 Y17.633312 Z-0.500000 I4.658081 J-11.665119
G02 X27.193435 Y18.153942 Z-0.500000 I32.892937 J-97.482950
G01 X28.307200 Y18.437823 Z-0.500000
G02 X28.420186 Y18.490443 Z-0.500000 I0.229022 J-0.344140
G03 X28.875932 Y18.627073 Z-0.500000 I-9.904366 J33.865896
G01 X29.373572 Y19.809907 Z-0.500000
G03 X28.683178 Y19.723092 Z-0.500000 I4.958758 J-42.223212
G03 X28.473081 Y19.667968 Z-0.500000 I0.117324 J-0.875103
G02 X27.811682 Y19.591113 Z-0.500000 I-31.747973 J270.330045
G02 X27.501498 Y19.573341 Z-0.500000 I-0.310185 J2.698146
G02 X26.730286 Y20.004314 Z-0.500000 I0.000000 J0.905514
G02 X26.316640 Y21.465875 Z-0.500000 I2.375288 J1.461561
G02 X26.378894 Y22.748077 Z-0.500000 I13.235410 J0.000000
G02 X26.956463 Y27.995118 Z-0.500000 I208.411351 J-20.285601
G02 X28.044006 Y36.633322 Z-0.500000 I2065.109592 J-255.608010
G02 X28.496777 Y40.012709 Z-0.500000 I288.817959 J-36.975890
G02 X29.785026 Y46.797793 Z-0.500000 I76.854347 J-11.077100
G02 X30.179274 Y47.109714 Z-0.500000 I0.394248 J-0.093192
G02 X30.508820 Y47.079347 Z-0.500000 I-0.000000 J-1.803310
G02 X31.008675 Y46.920460 Z-0.500000 I-0.387520 J-2.084840
G03 X31.143684 Y46.853928 Z-0.500000 I0.323286 J0.485772
G03 X31.648498 Y46.683895 Z-0.500000 I23.546270 J69.072566
G01 X32.620079 Y49.333440 Z-0.500000
G03 X32.035960 Y49.569461 Z-0.500000 I-1.251582 J-2.256670
G03 X31.672194 Y49.617321 Z-0.500000 I-0.363766 J-1.358513
G03 X30.939865 Y49.386084 Z-0.500000 I-0.000000 J-1.275265
G03 X29.681634 Y48.245233 Z-0.500000 I3.917285 J-5.584594
G03 X28.415735 Y46.446823 Z-0.500000 I7.791107 J-6.828894
G03 X27.264526 Y43.892404 Z-0.500000 I14.669246 J-8.147660
G01 X24.065413 Y34.997496 Z-0.500000
G01 X21.387636 Y27.238103 Z-0.500000
G01 X20.795208 Y25.534823 Z-0.500000
G03 X20.065475 Y39.878011 Z-0.500000 I-894.260317 J-38.306783
G03 X19.562956 Y46.494641 Z-0.500000 I-195.450272 J-11.516619
G01 X18.828345 Y45.311807 Z-0.500000
G03 X17.644284 Y45.546298 Z-0.500000 I-2.499410 J-9.514056
G03 X16.908877 Y45.595688 Z-0.500000 I-0.735407 J-5.450380
G03 X15.169662 Y44.954364 Z-0.500000 I-0.000000 J-2.678963
G03 X13.259518 Y42.473004 Z-0.500000 I4.917743 J-5.761559
G03 X11.689790 Y38.247751 Z-0.500000 I18.587670 J-9.309733
G03 X11.221564 Y34.477046 Z-0.500000 I14.948941 J-3.770705
G03 X11.336440 Y32.578302 Z-0.500000 I15.749237 J-0.000000
G03 X11.766598 Y30.124221 Z-0.500000 I23.492516 J2.853093
G01 X13.567580 Y32.631828 Z-0.500000
G02 X12.945563 Y35.866456 Z-0.500000 I43.153143 J9.975454
G02 X12.809272 Y37.647041 Z-0.500000 I11.563181 J1.780585
G02 X13.933866 Y41.312667 Z-0.500000 I6.536372 J-0.000000
G02 X16.032083 Y42.425693 Z-0.500000 I2.098217 J-1.421211
G02 X16.723774 Y42.372518 Z-0.500000 I0.000000 J-4.525308
G02 X17.738277 Y42.141812 Z-0.500000 I-1.134331 J-7.334025
G02 X15.603703 Y26.204524 Z-0.500000 I-749.642692 J92.292413
G02 X14.989409 Y23.311098 Z-0.500000 I-22.392361 J3.242130
G02 X13.994890 Y21.435577 Z-0.500000 I-4.650059 J1.264315
G02 X12.927758 Y20.945429 Z-0.500000 I-1.067132 J0.916587
G02 X12.527243 Y20.972323 Z-0.500000 I0.000000 J2.995789
G02 X11.174169 Y21.181995 Z-0.500000 I4.659861 J34.542212
G01 X10.084101 Y17.917373 Z-0.500000
(Subpath end)
G00 Z5.000000

(path id: path3553 at depth step: -1.0)
(path len: 247.63469)
G00 Z5.000000
G00 X10.084101 Y17.917373
(Subpath start)
G01 Z-1.000000 F100.0(Penetrate)
G03 X10.739873 Y17.873992 Z-1.000000 I0.815973 J7.356606 F800.000000
G03 X11.103078 Y17.870061 Z-1.000000 I0.363204 J16.777158
G03 X13.213116 Y18.665784 Z-1.000000 I-0.000000 J3.195483
G03 X15.202683 Y21.465875 Z-1.000000 I-4.936789 J5.614643
G03 X15.940499 Y23.847632 Z-1.000000 I-16.086633 J6.288449
G03 X16.814088 Y28.468253 Z-1.000000 I-55.467836 J12.879812
G03 X17.398993 Y32.724588 Z-1.000000 I-6872.422928 J946.575375
G03 X18.354402 Y40.060025 Z-1.000000 I-543.831853 J74.561701
G02 X19.148455 Y22.668328 Z-1.000000 I-3002.363021 J-145.792850
G02 X19.254894 Y18.816326 Z-1.000000 I-127.450203 J-5.449183
G01 X20.416053 Y20.614237 Z-1.000000
G02 X21.716852 Y25.296688 Z-1.000000 I57.224949 J-13.375362
G02 X26.743190 Y40.201963 Z-1.000000 I579.601944 J-187.152487
G01 X26.506218 Y38.120176 Z-1.000000
G02 X26.382417 Y37.051305 Z-1.000000 I-34.598823 J3.465761
G02 X25.961184 Y33.909289 Z-1.000000 I-631.876604 J83.113139
G03 X24.302991 Y21.563936 Z-1.000000 I36602.281040 J-4922.599360
G02 X24.254990 Y21.276621 Z-1.000000 I-4.485704 J0.601737
G03 X24.006781 Y19.565963 Z-1.000000 I29.995214 J-5.225510
G03 X23.946926 Y18.532450 Z-1.000000 I8.892830 J-1.033513
G03 X24.167584 Y17.525268 Z-1.000000 I2.408941 J0.000000
G03 X24.515658 Y17.302300 Z-1.000000 I0.348074 J0.160205
G03 X24.687238 Y17.324866 Z-1.000000 I0.000000 J0.663590
G02 X24.965904 Y17.396927 Z-1.000000 I4.386537 J-16.388220
G02 X25.608150 Y17.633312 Z-1.000000 I4.658081 J-11.665119
G02 X27.193435 Y18.153942 Z-1.000000 I32.892937 J-97.482950
G01 X28.307200 Y18.437823 Z-1.000000
G02 X28.420186 Y18.490443 Z-1.000000 I0.229022 J-0.344140
G03 X28.875932 Y18.627073 Z-1.000000 I-9.904366 J33.865896
G01 X29.373572 Y19.809907 Z-1.000000
G03 X28.683178 Y19.723092 Z-1.000000 I4.958758 J-42.223212
G03 X28.473081 Y19.667968 Z-1.000000 I0.117324 J-0.875103
G02 X27.811682 Y19.591113 Z-1.000000 I-31.747973 J270.330045
G02 X27.501498 Y19.573341 Z-1.000000 I-0.310185 J2.698146
G02 X26.730286 Y20.004314 Z-1.000000 I0.000000 J0.905514
G02 X26.316640 Y21.465875 Z-1.000000 I2.375288 J1.461561
G02 X26.378894 Y22.748077 Z-1.000000 I13.235410 J0.000000
G02 X26.956463 Y27.995118 Z-1.000000 I208.411351 J-20.285601
G02 X28.044006 Y36.633322 Z-1.000000 I2065.109592 J-255.608010
G02 X28.496777 Y40.012709 Z-1.000000 I288.817959 J-36.975890
G02 X29.785026 Y46.797793 Z-1.000000 I76.854347 J-11.077100
G02 X30.179274 Y47.109714 Z-1.000000 I0.394248 J-0.093192
G02 X30.508820 Y47.079347 Z-1.000000 I-0.000000 J-1.803310
G02 X31.008675 Y46.920460 Z-1.000000 I-0.387520 J-2.084840
G03 X31.143684 Y46.853928 Z-1.000000 I0.323286 J0.485772
G03 X31.648498 Y46.683895 Z-1.000000 I23.546270 J69.072566
G01 X32.620079 Y49.333440 Z-1.000000
G03 X32.035960 Y49.569461 Z-1.000000 I-1.251582 J-2.256670
G03 X31.672194 Y49.617321 Z-1.000000 I-0.363766 J-1.358513
G03 X30.939865 Y49.386084 Z-1.000000 I-0.000000 J-1.275265
G03 X29.681634 Y48.245233 Z-1.000000 I3.917285 J-5.584594
G03 X28.415735 Y46.446823 Z-1.000000 I7.791107 J-6.828894
G03 X27.264526 Y43.892404 Z-1.000000 I14.669246 J-8.147660
G01 X24.065413 Y34.997496 Z-1.000000
G01 X21.387636 Y27.238103 Z-1.000000
G01 X20.795208 Y25.534823 Z-1.000000
G03 X20.065475 Y39.878011 Z-1.000000 I-894.260317 J-38.306783
G03 X19.562956 Y46.494641 Z-1.000000 I-195.450272 J-11.516619
G01 X18.828345 Y45.311807 Z-1.000000
G03 X17.644284 Y45.546298 Z-1.000000 I-2.499410 J-9.514056
G03 X16.908877 Y45.595688 Z-1.000000 I-0.735407 J-5.450380
G03 X15.169662 Y44.954364 Z-1.000000 I-0.000000 J-2.678963
G03 X13.259518 Y42.473004 Z-1.000000 I4.917743 J-5.761559
G03 X11.689790 Y38.247751 Z-1.000000 I18.587670 J-9.309733
G03 X11.221564 Y34.477046 Z-1.000000 I14.948941 J-3.770705
G03 X11.336440 Y32.578302 Z-1.000000 I15.749237 J-0.000000
G03 X11.766598 Y30.124221 Z-1.000000 I23.492516 J2.853093
G01 X13.567580 Y32.631828 Z-1.000000
G02 X12.945563 Y35.866456 Z-1.000000 I43.153143 J9.975454
G02 X12.809272 Y37.647041 Z-1.000000 I11.563181 J1.780585
G02 X13.933866 Y41.312667 Z-1.000000 I6.536372 J-0.000000
G02 X16.032083 Y42.425693 Z-1.000000 I2.098217 J-1.421211
G02 X16.723774 Y42.372518 Z-1.000000 I0.000000 J-4.525308
G02 X17.738277 Y42.141812 Z-1.000000 I-1.134331 J-7.334025
G02 X15.603703 Y26.204524 Z-1.000000 I-749.642692 J92.292413
G02 X14.989409 Y23.311098 Z-1.000000 I-22.392361 J3.242130
G02 X13.994890 Y21.435577 Z-1.000000 I-4.650059 J1.264315
G02 X12.927758 Y20.945429 Z-1.000000 I-1.067132 J0.916587
G02 X12.527243 Y20.972323 Z-1.000000 I0.000000 J2.995789
G02 X11.174169 Y21.181995 Z-1.000000 I4.659861 J34.542212
G01 X10.084101 Y17.917373 Z-1.000000
(Subpath end)
G00 Z5.000000

(path id: path3553 at depth step: -1.5)
(path len: 247.63469)
G00 Z5.000000
G00 X10.084101 Y17.917373
(Subpath start)
G01 Z-1.500000 F100.0(Penetrate)
G03 X10.739873 Y17.873992 Z-1.500000 I0.815973 J7.356606 F800.000000
G03 X11.103078 Y17.870061 Z-1.500000 I0.363204 J16.777158
G03 X13.213116 Y18.665784 Z-1.500000 I-0.000000 J3.195483
G03 X15.202683 Y21.465875 Z-1.500000 I-4.936789 J5.614643
G03 X15.940499 Y23.847632 Z-1.500000 I-16.086633 J6.288449
G03 X16.814088 Y28.468253 Z-1.500000 I-55.467836 J12.879812
G03 X17.398993 Y32.724588 Z-1.500000 I-6872.422928 J946.575375
G03 X18.354402 Y40.060025 Z-1.500000 I-543.831853 J74.561701
G02 X19.148455 Y22.668328 Z-1.500000 I-3002.363021 J-145.792850
G02 X19.254894 Y18.816326 Z-1.500000 I-127.450203 J-5.449183
G01 X20.416053 Y20.614237 Z-1.500000
G02 X21.716852 Y25.296688 Z-1.500000 I57.224949 J-13.375362
G02 X26.743190 Y40.201963 Z-1.500000 I579.601944 J-187.152487
G01 X26.506218 Y38.120176 Z-1.500000
G02 X26.382417 Y37.051305 Z-1.500000 I-34.598823 J3.465761
G02 X25.961184 Y33.909289 Z-1.500000 I-631.876604 J83.113139
G03 X24.302991 Y21.563936 Z-1.500000 I36602.281040 J-4922.599360
G02 X24.254990 Y21.276621 Z-1.500000 I-4.485704 J0.601737
G03 X24.006781 Y19.565963 Z-1.500000 I29.995214 J-5.225510
G03 X23.946926 Y18.532450 Z-1.500000 I8.892830 J-1.033513
G03 X24.167584 Y17.525268 Z-1.500000 I2.408941 J0.000000
G03 X24.515658 Y17.302300 Z-1.500000 I0.348074 J0.160205
G03 X24.687238 Y17.324866 Z-1.500000 I0.000000 J0.663590
G02 X24.965904 Y17.396927 Z-1.500000 I4.386537 J-16.388220
G02 X25.608150 Y17.633312 Z-1.500000 I4.658081 J-11.665119
G02 X27.193435 Y18.153942 Z-1.500000 I32.892937 J-97.482950
G01 X28.307200 Y18.437823 Z-1.500000
G02 X28.420186 Y18.490443 Z-1.500000 I0.229022 J-0.344140
G03 X28.875932 Y18.627073 Z-1.500000 I-9.904366 J33.865896
G01 X29.373572 Y19.809907 Z-1.500000
G03 X28.683178 Y19.723092 Z-1.500000 I4.958758 J-42.223212
G03 X28.473081 Y19.667968 Z-1.500000 I0.117324 J-0.875103
G02 X27.811682 Y19.591113 Z-1.500000 I-31.747973 J270.330045
G02 X27.501498 Y19.573341 Z-1.500000 I-0.310185 J2.698146
G02 X26.730286 Y20.004314 Z-1.500000 I0.000000 J0.905514
G02 X26.316640 Y21.465875 Z-1.500000 I2.375288 J1.461561
G02 X26.378894 Y22.748077 Z-1.500000 I13.235410 J0.000000
G02 X26.956463 Y27.995118 Z-1.500000 I208.411351 J-20.285601
G02 X28.044006 Y36.633322 Z-1.500000 I2065.109592 J-255.608010
G02 X28.496777 Y40.012709 Z-1.500000 I288.817959 J-36.975890
G02 X29.785026 Y46.797793 Z-1.500000 I76.854347 J-11.077100
G02 X30.179274 Y47.109714 Z-1.500000 I0.394248 J-0.093192
G02 X30.508820 Y47.079347 Z-1.500000 I-0.000000 J-1.803310
G02 X31.008675 Y46.920460 Z-1.500000 I-0.387520 J-2.084840
G03 X31.143684 Y46.853928 Z-1.500000 I0.323286 J0.485772
G03 X31.648498 Y46.683895 Z-1.500000 I23.546270 J69.072566
G01 X32.620079 Y49.333440 Z-1.500000
G03 X32.035960 Y49.569461 Z-1.500000 I-1.251582 J-2.256670
G03 X31.672194 Y49.617321 Z-1.500000 I-0.363766 J-1.358513
G03 X30.939865 Y49.386084 Z-1.500000 I-0.000000 J-1.275265
G03 X29.681634 Y48.245233 Z-1.500000 I3.917285 J-5.584594
G03 X28.415735 Y46.446823 Z-1.500000 I7.791107 J-6.828894
G03 X27.264526 Y43.892404 Z-1.500000 I14.669246 J-8.147660
G01 X24.065413 Y34.997496 Z-1.500000
G01 X21.387636 Y27.238103 Z-1.500000
G01 X20.795208 Y25.534823 Z-1.500000
G03 X20.065475 Y39.878011 Z-1.500000 I-894.260317 J-38.306783
G03 X19.562956 Y46.494641 Z-1.500000 I-195.450272 J-11.516619
G01 X18.828345 Y45.311807 Z-1.500000
G03 X17.644284 Y45.546298 Z-1.500000 I-2.499410 J-9.514056
G03 X16.908877 Y45.595688 Z-1.500000 I-0.735407 J-5.450380
G03 X15.169662 Y44.954364 Z-1.500000 I-0.000000 J-2.678963
G03 X13.259518 Y42.473004 Z-1.500000 I4.917743 J-5.761559
G03 X11.689790 Y38.247751 Z-1.500000 I18.587670 J-9.309733
G03 X11.221564 Y34.477046 Z-1.500000 I14.948941 J-3.770705
G03 X11.336440 Y32.578302 Z-1.500000 I15.749237 J-0.000000
G03 X11.766598 Y30.124221 Z-1.500000 I23.492516 J2.853093
G01 X13.567580 Y32.631828 Z-1.500000
G02 X12.945563 Y35.866456 Z-1.500000 I43.153143 J9.975454
G02 X12.809272 Y37.647041 Z-1.500000 I11.563181 J1.780585
G02 X13.933866 Y41.312667 Z-1.500000 I6.536372 J-0.000000
G02 X16.032083 Y42.425693 Z-1.500000 I2.098217 J-1.421211
G02 X16.723774 Y42.372518 Z-1.500000 I0.000000 J-4.525308
G02 X17.738277 Y42.141812 Z-1.500000 I-1.134331 J-7.334025
G02 X15.603703 Y26.204524 Z-1.500000 I-749.642692 J92.292413
G02 X14.989409 Y23.311098 Z-1.500000 I-22.392361 J3.242130
G02 X13.994890 Y21.435577 Z-1.500000 I-4.650059 J1.264315
G02 X12.927758 Y20.945429 Z-1.500000 I-1.067132 J0.916587
G02 X12.527243 Y20.972323 Z-1.500000 I0.000000 J2.995789
G02 X11.174169 Y21.181995 Z-1.500000 I4.659861 J34.542212
G01 X10.084101 Y17.917373 Z-1.500000
(Subpath end)
G00 Z5.000000

(End cutting path id: path3553 at depth: -1.5)

(Footer)
M5
G00 X0.0000 Y0.0000
M2
(Using default footer. To add your own footer create file "footer" in the output dir.)
(end)
