
(Header)
(Generated by gcodetools from Inkscape.)
(Using default header. To add your own header create file "header" in the output dir.)
M3
(Header end.)
G21 (All units in mm)

(Start cutting path id: rect2985 at depth: -1.5)
(path id: rect2985 at depth step: -0.5)
(path len: 298.43590)
(Change tool to Cylindrical cutter)

G00 Z5.000000
G00 X4.883262 Y4.838492
(Subpath start)
G01 Z-0.500000 F100.0(Penetrate)
G01 X104.492238 Y4.838492 Z-0.500000 F800.000000
G01 X104.492238 Y54.447467 Z-0.500000
G01 X4.883262 Y54.447467 Z-0.500000
G01 X4.883262 Y4.838492 Z-0.500000
(Subpath end)
G00 Z5.000000

(path id: rect2985 at depth step: -1.0)
(path len: 298.43590)
G00 Z5.000000
G00 X4.883262 Y4.838492
(Subpath start)
G01 Z-1.000000 F100.0(Penetrate)
G01 X104.492238 Y4.838492 Z-1.000000 F800.000000
G01 X104.492238 Y54.447467 Z-1.000000
G01 X4.883262 Y54.447467 Z-1.000000
G01 X4.883262 Y4.838492 Z-1.000000
(Subpath end)
G00 Z5.000000

(path id: rect2985 at depth step: -1.5)
(path len: 298.43590)
G00 Z5.000000
G00 X4.883262 Y4.838492
(Subpath start)
G01 Z-1.500000 F100.0(Penetrate)
G01 X104.492238 Y4.838492 Z-1.500000 F800.000000
G01 X104.492238 Y54.447467 Z-1.500000
G01 X4.883262 Y54.447467 Z-1.500000
G01 X4.883262 Y4.838492 Z-1.500000
(Subpath end)
G00 Z5.000000

(End cutting path id: rect2985 at depth: -1.5)

(Footer)
M5
G00 X0.0000 Y0.0000
M2
(Using default footer. To add your own footer create file "footer" in the output dir.)
(end)
