; generated by Slic3r 1.2.9 on 2018-01-18 at 23:33:37

; external perimeters extrusion width = 0.50mm
; perimeters extrusion width = 0.72mm
; infill extrusion width = 0.72mm
; solid infill extrusion width = 0.72mm
; top infill extrusion width = 0.72mm

M107
M104 S200 ; set temperature
G28 ; home all axes
G1 Z5 F5000 ; lift nozzle

M109 S200 ; wait for temperature to be reached
G21 ; set units to millimeters
G90 ; use absolute coordinates
M82 ; use absolute distances for extrusion
G92 E0
G1 Z0.350 F7800.000
G1 E-2.00000 F2400.00000
G92 E0
G1 X84.915 Y80.753 F7800.000
G1 E2.00000 F2400.00000
G1 X86.668 Y79.274 E2.07096 F1800.000
G1 X88.820 Y78.481 E2.14192
G1 X90.000 Y78.375 E2.17858
G1 X110.000 Y78.375 E2.79740
G1 X112.259 Y78.772 E2.86836
G1 X114.247 Y79.915 E2.93933 F1800.000
G1 X115.726 Y81.668 E3.01029
G1 X116.519 Y83.820 E3.08125
G1 X116.625 Y85.000 E3.11790
G1 X116.625 Y115.000 E4.04614
G1 X116.228 Y117.259 E4.11710
G1 X115.085 Y119.247 E4.18807
G1 X113.332 Y120.726 E4.25903
G1 X111.180 Y121.519 E4.32999
G1 X110.000 Y121.625 E4.36664
G1 X90.000 Y121.625 E4.98547
G1 X87.741 Y121.228 E5.05643
G1 X85.753 Y120.085 E5.12739
G1 X84.274 Y118.332 E5.19836
G1 X83.481 Y116.180 E5.26932
G1 X83.375 Y115.000 E5.30597
G1 X83.375 Y85.000 E6.23421
G1 X83.772 Y82.741 E6.30517
G1 X84.878 Y80.818 E6.37381
G1 E4.37381 F2400.00000
G92 E0
G1 X108.400 Y113.400 F7800.000
G1 E2.00000 F2400.00000
G1 X91.600 Y113.400 E2.51983 F1800.000
G1 X91.600 Y86.600 E3.34907
G1 X108.400 Y86.600 E3.86890
G1 X108.400 Y113.325 E4.69582
G1 X109.025 Y114.025 F7800.000
G1 X90.975 Y114.025 E5.25431 F1800.000
G1 X90.975 Y85.975 E6.12223
G1 X109.025 Y85.975 E6.68072
G1 X109.025 Y113.950 E7.54631
G1 X109.650 Y114.650 F7800.000
G1 X90.350 Y114.650 E8.14348 F1800.000
G1 X90.350 Y85.350 E9.05006
G1 X109.650 Y85.350 E9.64723
G1 X109.650 Y114.575 E10.55149
G1 X109.217 Y114.400 F7800.000
G1 X91.978 Y112.717 F7800.000
G1 X92.283 Y113.022 E10.56511 F1800.000
G1 X93.185 Y113.022 E10.59357
G1 X91.978 Y111.815 E10.64745
G1 X91.978 Y110.913 E10.67592
G1 X94.087 Y113.022 E10.77005
G1 X94.988 Y113.022 E10.79851
G1 X91.978 Y110.012 E10.93290
G1 X91.978 Y109.110 E10.96136
G1 X95.890 Y113.022 E11.13600
G1 X96.792 Y113.022 E11.16447
G1 X91.978 Y108.208 E11.37937
G1 X91.978 Y107.307 E11.40783
G1 X97.693 Y113.022 E11.66298
G1 X98.595 Y113.022 E11.69145
G1 X91.978 Y106.405 E11.98685
G1 X91.978 Y105.503 E12.01532
G1 X99.497 Y113.022 E12.35098
G1 X100.398 Y113.022 E12.37945
G1 X91.978 Y104.602 E12.75536
G1 X91.978 Y103.700 E12.78383
G1 X101.300 Y113.022 E13.20000
G1 X102.202 Y113.022 E13.22847
G1 X91.978 Y102.798 E13.68489
G1 X91.978 Y101.897 E13.71336
G1 X103.103 Y113.022 E14.21004
G1 X104.005 Y113.022 E14.23851
G1 X91.978 Y100.995 E14.77544
G1 X91.978 Y100.093 E14.80391
G1 X104.907 Y113.022 E15.38110
G1 X105.808 Y113.022 E15.40957
G1 X91.978 Y99.192 E16.02701
G1 X91.978 Y98.290 E16.05548
G1 X106.710 Y113.022 E16.71318
G1 X107.612 Y113.022 E16.74165
G1 X91.978 Y97.388 E17.43961
G1 X91.978 Y96.487 E17.46807
G1 X108.022 Y112.530 E18.18433
G1 X108.022 Y111.628 E18.21280
G1 X91.978 Y95.585 E18.92906
G1 X91.978 Y94.683 E18.95752
G1 X108.022 Y110.727 E19.67379
G1 X108.022 Y109.825 E19.70225
G1 X91.978 Y93.782 E20.41851
G1 X91.978 Y92.880 E20.44698
G1 X108.022 Y108.923 E21.16324
G1 X108.022 Y108.022 E21.19170
G1 X91.978 Y91.978 E21.90797
G1 X91.978 Y91.077 E21.93643
G1 X108.022 Y107.120 E22.65269
G1 X108.022 Y106.218 E22.68116
G1 X91.978 Y90.175 E23.39742
G1 X91.978 Y89.273 E23.42589
G1 X108.022 Y105.317 E24.14215
G1 X108.022 Y104.415 E24.17061
G1 X91.978 Y88.372 E24.88687
G1 X91.978 Y87.470 E24.91534
G1 X108.022 Y103.513 E25.63160
G1 X108.022 Y102.612 E25.66007
G1 X92.388 Y86.978 E26.35803
G1 X93.290 Y86.978 E26.38649
G1 X108.022 Y101.710 E27.04419
G1 X108.022 Y100.808 E27.07266
G1 X94.192 Y86.978 E27.69011
G1 X95.093 Y86.978 E27.71857
G1 X108.022 Y99.907 E28.29577
G1 X108.022 Y99.005 E28.32423
G1 X95.995 Y86.978 E28.86117
G1 X96.897 Y86.978 E28.88964
G1 X108.022 Y98.103 E29.38632
G1 X108.022 Y97.202 E29.41479
G1 X97.798 Y86.978 E29.87121
G1 X98.700 Y86.978 E29.89968
G1 X108.022 Y96.300 E30.31585
G1 X108.022 Y95.398 E30.34432
G1 X99.602 Y86.978 E30.72024
G1 X100.503 Y86.978 E30.74870
G1 X108.022 Y94.497 E31.08436
G1 X108.022 Y93.595 E31.11283
G1 X101.405 Y86.978 E31.40824
G1 X102.307 Y86.978 E31.43670
G1 X108.022 Y92.693 E31.69185
G1 X108.022 Y91.792 E31.72032
G1 X103.208 Y86.978 E31.93522
G1 X104.110 Y86.978 E31.96368
G1 X108.022 Y90.890 E32.13832
G1 X108.022 Y89.988 E32.16679
G1 X105.012 Y86.978 E32.30118
G1 X105.913 Y86.978 E32.32964
G1 X108.022 Y89.087 E32.42377
G1 X108.022 Y88.185 E32.45224
G1 X106.815 Y86.978 E32.50612
G1 X107.717 Y86.978 E32.53458
G1 X108.022 Y87.283 E32.54820
G1 Z0.650 F7800.000
G1 X108.550 Y113.550 F7800.000
G1 X91.450 Y113.550 E33.02323 F3600.000
G1 X91.450 Y86.450 E33.77603
G1 X108.550 Y86.450 E34.25105
G1 X108.550 Y113.475 E35.00177
G1 X109.205 Y114.205 F7800.000
G1 X90.795 Y114.205 E35.51316 F3600.000
G1 X90.795 Y85.795 E36.30232
G1 X109.205 Y85.795 E36.81371
G1 X109.205 Y114.130 E37.60079
G1 X109.750 Y114.750 F7800.000
G1 X90.250 Y114.750 E37.96131 F1800.000
G1 X90.250 Y85.250 E38.50671
G1 X109.750 Y85.250 E38.86723
G1 X109.750 Y114.675 E39.41125
G1 X109.317 Y114.500 F7800.000
G1 X107.835 Y113.153 F7800.000
G1 X108.153 Y112.835 E39.42383 F1200.000
G1 X108.153 Y111.902 E39.44994
G1 X106.902 Y113.153 E39.49945
G1 X105.970 Y113.153 E39.52556
G1 X108.153 Y110.970 E39.61200
G1 X108.153 Y110.037 E39.63811
G1 X105.037 Y113.153 E39.76148
G1 X104.104 Y113.153 E39.78759
G1 X108.153 Y109.104 E39.94789
G1 X108.153 Y108.171 E39.97400
G1 X103.171 Y113.153 E40.17123
G1 X102.238 Y113.153 E40.19734
G1 X108.153 Y107.238 E40.43150
G1 X108.153 Y106.306 E40.45761
G1 X101.306 Y113.153 E40.72870
G1 X100.373 Y113.153 E40.75481
G1 X108.153 Y105.373 E41.06283
G1 X108.153 Y104.440 E41.08894
G1 X99.440 Y113.153 E41.43389
G1 X98.507 Y113.153 E41.46000
G1 X108.153 Y103.507 E41.84188
G1 X108.153 Y102.574 E41.86799
G1 X97.574 Y113.153 E42.28680
G1 X96.642 Y113.153 E42.31291
G1 X108.153 Y101.642 E42.76864
G1 X108.153 Y100.709 E42.79476
G1 X95.709 Y113.153 E43.28742
G1 X94.776 Y113.153 E43.31354
G1 X108.153 Y99.776 E43.84313
G1 X108.153 Y98.843 E43.86925
G1 X93.843 Y113.153 E44.43577
G1 X92.910 Y113.153 E44.46189
G1 X108.153 Y97.910 E45.06534
G1 X108.153 Y96.977 E45.09145
G1 X91.977 Y113.153 E45.73184
G1 X91.847 Y112.351 E45.75460
G1 X108.153 Y96.045 E46.40015
G1 X108.153 Y95.112 E46.42626
G1 X91.847 Y111.418 E47.07181
G1 X91.847 Y110.485 E47.09792
G1 X108.153 Y94.179 E47.74347
G1 X108.153 Y93.246 E47.76959
G1 X91.847 Y109.552 E48.41514
G1 X91.847 Y108.619 E48.44125
G1 X108.153 Y92.313 E49.08680
G1 X108.153 Y91.381 E49.11291
G1 X91.847 Y107.687 E49.75846
G1 X91.847 Y106.754 E49.78458
G1 X108.153 Y90.448 E50.43013
G1 X108.153 Y89.515 E50.45624
G1 X91.847 Y105.821 E51.10179
G1 X91.847 Y104.888 E51.12790
G1 X108.153 Y88.582 E51.77345
G1 X108.153 Y87.649 E51.79957
G1 X91.847 Y103.955 E52.44512
G1 X91.847 Y103.022 E52.47123
G1 X108.022 Y86.847 E53.11161
G1 X107.090 Y86.847 E53.13773
G1 X91.847 Y102.090 E53.74118
G1 X91.847 Y101.157 E53.76729
G1 X106.157 Y86.847 E54.33382
G1 X105.224 Y86.847 E54.35993
G1 X91.847 Y100.224 E54.88953
G1 X91.847 Y99.291 E54.91564
G1 X104.291 Y86.847 E55.40830
G1 X103.358 Y86.847 E55.43442
G1 X91.847 Y98.358 E55.89015
G1 X91.847 Y97.426 E55.91626
G1 X102.426 Y86.847 E56.33507
G1 X101.493 Y86.847 E56.36118
G1 X91.847 Y96.493 E56.74306
G1 X91.847 Y95.560 E56.76917
G1 X100.560 Y86.847 E57.11412
G1 X99.627 Y86.847 E57.14023
G1 X91.847 Y94.627 E57.44824
G1 X91.847 Y93.694 E57.47436
G1 X98.694 Y86.847 E57.74544
G1 X97.762 Y86.847 E57.77156
G1 X91.847 Y92.762 E58.00571
G1 X91.847 Y91.829 E58.03182
G1 X96.829 Y86.847 E58.22905
G1 X95.896 Y86.847 E58.25516
G1 X91.847 Y90.896 E58.41546
G1 X91.847 Y89.963 E58.44157
G1 X94.963 Y86.847 E58.56494
G1 X94.030 Y86.847 E58.59105
G1 X91.847 Y89.030 E58.67749
G1 X91.847 Y88.097 E58.70360
G1 X93.097 Y86.847 E58.75311
G1 X92.165 Y86.847 E58.77922
G1 X91.847 Y87.165 E58.79179
G1 Z0.950 F7800.000
G1 X108.550 Y113.550 F7800.000
G1 X91.450 Y113.550 E59.26682 F3600.000
G1 X91.450 Y86.450 E60.01962
G1 X108.550 Y86.450 E60.49465
G1 X108.550 Y113.475 E61.24537
G1 X109.205 Y114.205 F7800.000
G1 X90.795 Y114.205 E61.75675 F3600.000
G1 X90.795 Y85.795 E62.54591
G1 X109.205 Y85.795 E63.05730
G1 X109.205 Y114.130 E63.84438
G1 X109.750 Y114.750 F7800.000
G1 X90.250 Y114.750 E64.20490 F1800.000
G1 X90.250 Y85.250 E64.75030
G1 X109.750 Y85.250 E65.11083
G1 X109.750 Y114.675 E65.65484
G1 X109.317 Y114.500 F7800.000
G1 X92.165 Y113.153 F7800.000
G1 X91.847 Y112.835 E65.66742 F1200.000
G1 X91.847 Y111.903 E65.69353
G1 X93.097 Y113.153 E65.74304
G1 X94.030 Y113.153 E65.76915
G1 X91.847 Y110.970 E65.85559
G1 X91.847 Y110.037 E65.88170
G1 X94.963 Y113.153 E66.00507
G1 X95.896 Y113.153 E66.03118
G1 X91.847 Y109.104 E66.19147
G1 X91.847 Y108.171 E66.21759
G1 X96.829 Y113.153 E66.41481
G1 X97.762 Y113.153 E66.44093
G1 X91.847 Y107.238 E66.67508
G1 X91.847 Y106.306 E66.70119
G1 X98.694 Y113.153 E66.97228
G1 X99.627 Y113.153 E66.99839
G1 X91.847 Y105.373 E67.30641
G1 X91.847 Y104.440 E67.33252
G1 X100.560 Y113.153 E67.67747
G1 X101.493 Y113.153 E67.70358
G1 X91.847 Y103.507 E68.08545
G1 X91.847 Y102.574 E68.11157
G1 X102.426 Y113.153 E68.53037
G1 X103.358 Y113.153 E68.55649
G1 X91.847 Y101.642 E69.01222
G1 X91.847 Y100.709 E69.03833
G1 X104.291 Y113.153 E69.53100
G1 X105.224 Y113.153 E69.55711
G1 X91.847 Y99.776 E70.08671
G1 X91.847 Y98.843 E70.11282
G1 X106.157 Y113.153 E70.67934
G1 X107.090 Y113.153 E70.70546
G1 X91.847 Y97.910 E71.30891
G1 X91.847 Y96.978 E71.33502
G1 X108.022 Y113.153 E71.97541
G1 X108.153 Y112.351 E71.99816
G1 X91.847 Y96.045 E72.64371
G1 X91.847 Y95.112 E72.66983
G1 X108.153 Y111.418 E73.31538
G1 X108.153 Y110.485 E73.34149
G1 X91.847 Y94.179 E73.98704
G1 X91.847 Y93.246 E74.01315
G1 X108.153 Y109.552 E74.65870
G1 X108.153 Y108.619 E74.68482
G1 X91.847 Y92.313 E75.33037
G1 X91.847 Y91.381 E75.35648
G1 X108.153 Y107.687 E76.00203
G1 X108.153 Y106.754 E76.02814
G1 X91.847 Y90.448 E76.67369
G1 X91.847 Y89.515 E76.69981
G1 X108.153 Y105.821 E77.34536
G1 X108.153 Y104.888 E77.37147
G1 X91.847 Y88.582 E78.01702
G1 X91.847 Y87.649 E78.04313
G1 X108.153 Y103.955 E78.68868
G1 X108.153 Y103.023 E78.71480
G1 X91.977 Y86.847 E79.35518
G1 X92.910 Y86.847 E79.38130
G1 X108.153 Y102.090 E79.98475
G1 X108.153 Y101.157 E80.01087
G1 X93.843 Y86.847 E80.57739
G1 X94.776 Y86.847 E80.60350
G1 X108.153 Y100.224 E81.13310
G1 X108.153 Y99.291 E81.15921
G1 X95.709 Y86.847 E81.65188
G1 X96.642 Y86.847 E81.67799
G1 X108.153 Y98.358 E82.13373
G1 X108.153 Y97.426 E82.15984
G1 X97.574 Y86.847 E82.57865
G1 X98.507 Y86.847 E82.60476
G1 X108.153 Y96.493 E82.98664
G1 X108.153 Y95.560 E83.01275
G1 X99.440 Y86.847 E83.35770
G1 X100.373 Y86.847 E83.38381
G1 X108.153 Y94.627 E83.69183
G1 X108.153 Y93.694 E83.71794
G1 X101.306 Y86.847 E83.98902
G1 X102.238 Y86.847 E84.01514
G1 X108.153 Y92.762 E84.24929
G1 X108.153 Y91.829 E84.27541
G1 X103.171 Y86.847 E84.47263
G1 X104.104 Y86.847 E84.49875
G1 X108.153 Y90.896 E84.65904
G1 X108.153 Y89.963 E84.68516
G1 X105.037 Y86.847 E84.80852
G1 X105.970 Y86.847 E84.83464
G1 X108.153 Y89.030 E84.92107
G1 X108.153 Y88.098 E84.94719
G1 X106.902 Y86.847 E84.99669
G1 X107.835 Y86.847 E85.02281
G1 X108.153 Y87.165 E85.03538
M106 S242.25
G1 Z1.250 F7800.000
G1 X108.550 Y113.550 F7800.000
G1 X91.450 Y113.550 E85.51041 F3600.000
G1 X91.450 Y86.450 E86.26321
G1 X108.550 Y86.450 E86.73824
G1 X108.550 Y113.475 E87.48896
G1 X109.205 Y114.205 F7800.000
G1 X90.795 Y114.205 E88.00034 F3600.000
G1 X90.795 Y85.795 E88.78950
G1 X109.205 Y85.795 E89.30089
G1 X109.205 Y114.130 E90.08797
G1 X109.750 Y114.750 F7800.000
G1 X90.250 Y114.750 E90.44849 F1800.000
G1 X90.250 Y85.250 E90.99390
G1 X109.750 Y85.250 E91.35442
G1 X109.750 Y114.675 E91.89843
G1 X109.317 Y114.500 F7800.000
G1 X107.994 Y111.544 F7800.000
G1 X107.994 Y110.618 E91.92414 F4800.000
G1 X106.076 Y112.537 E91.99951
G1 X103.156 Y111.755 E92.08349
G1 X101.916 Y112.994 E92.13218
G1 X106.544 Y112.994 E92.26074
G1 X107.994 Y111.544 E92.31771
G1 X107.994 Y99.499 F7800.000
G1 X106.543 Y99.111 E92.35942 F4800.000
G1 X103.604 Y102.050 E92.47489
G1 X104.387 Y104.970 E92.55886
G1 X101.448 Y107.909 E92.67432
G1 X98.528 Y107.126 E92.75829
G1 X95.588 Y110.066 E92.87375
G1 X96.362 Y112.994 E92.95789
G1 X100.990 Y112.994 E93.08645
G1 X102.693 Y111.292 E93.15333
G1 X101.910 Y108.372 E93.23730
G1 X104.850 Y105.433 E93.35276
G1 X107.770 Y106.215 E93.43673
G1 X107.994 Y105.990 E93.44556
G1 X107.994 Y99.499 E93.62586
G1 X107.994 Y93.032 F7800.000
G1 X107.994 Y88.404 E93.75442 F4800.000
G1 X106.992 Y89.406 E93.79378
G1 X107.775 Y92.326 E93.87775
G1 X104.835 Y95.265 E93.99321
G1 X101.915 Y94.483 E94.07718
G1 X98.976 Y97.422 E94.19265
G1 X99.759 Y100.342 E94.27662
G1 X96.820 Y103.281 E94.39208
G1 X93.900 Y102.498 E94.47605
G1 X92.006 Y104.392 E94.55044
G1 X92.006 Y109.020 E94.67900
G1 X92.206 Y108.820 E94.68684
G1 X95.126 Y109.603 E94.77082
G1 X98.065 Y106.664 E94.88628
G1 X97.282 Y103.744 E94.97025
G1 X100.222 Y100.805 E95.08571
G1 X103.142 Y101.587 E95.16968
G1 X106.081 Y98.648 E95.28515
G1 X105.298 Y95.728 E95.36912
G1 X107.994 Y93.032 E95.47502
G1 X107.994 Y87.478 F7800.000
G1 X107.994 Y87.006 E95.48814 F4800.000
G1 X102.961 Y87.006 E95.62795
G1 X103.147 Y87.698 E95.64784
G1 X100.207 Y90.637 E95.76331
G1 X97.287 Y89.855 E95.84728
G1 X94.348 Y92.794 E95.96274
G1 X95.131 Y95.714 E96.04671
G1 X92.192 Y98.653 E96.16217
G1 X92.006 Y98.603 E96.16751
G1 X92.006 Y103.467 E96.30261
G1 X93.437 Y102.036 E96.35882
G1 X92.654 Y99.116 E96.44279
G1 X95.594 Y96.177 E96.55825
G1 X98.514 Y96.959 E96.64222
G1 X101.453 Y94.020 E96.75769
G1 X100.670 Y91.100 E96.84166
G1 X103.609 Y88.161 E96.95712
G1 X106.529 Y88.943 E97.04109
G1 X107.994 Y87.478 E97.09863
G1 X96.825 Y89.392 F7800.000
G1 X96.185 Y87.006 E97.16724 F4800.000
G1 X92.006 Y87.006 E97.28334
G1 X92.006 Y91.827 E97.41727
G1 X93.886 Y92.331 E97.47132
G1 X96.825 Y89.392 E97.58679
G1 Z1.550 F7800.000
G1 X108.550 Y113.550 F7800.000
G1 X91.450 Y113.550 E98.06181 F3600.000
G1 X91.450 Y86.450 E98.81461
G1 X108.550 Y86.450 E99.28964
G1 X108.550 Y113.475 E100.04036
G1 X109.205 Y114.205 F7800.000
G1 X90.795 Y114.205 E100.55174 F3600.000
G1 X90.795 Y85.795 E101.34091
G1 X109.205 Y85.795 E101.85229
G1 X109.205 Y114.130 E102.63937
G1 X109.750 Y114.750 F7800.000
G1 X90.250 Y114.750 E102.99989 F1800.000
G1 X90.250 Y85.250 E103.54530
G1 X109.750 Y85.250 E103.90582
G1 X109.750 Y114.675 E104.44983
G1 X109.317 Y114.500 F7800.000
G1 X92.206 Y108.820 F7800.000
G1 X92.006 Y108.075 E104.47127 F4800.000
G1 X92.006 Y112.994 E104.60791
G1 X96.034 Y112.994 E104.71981
G1 X95.126 Y109.603 E104.81733
G1 X92.206 Y108.820 E104.90130
G1 X92.192 Y98.653 F7800.000
G1 X92.006 Y98.603 E104.90664 F4800.000
G1 X92.006 Y103.929 E105.05459
G1 X93.267 Y102.668 E105.10415
G1 X92.192 Y98.653 E105.21961
G1 X96.655 Y90.024 F7800.000
G1 X95.847 Y87.006 E105.30640 F4800.000
G1 X92.006 Y87.006 E105.41309
G1 X92.006 Y91.827 E105.54702
G1 X93.886 Y92.331 E105.60107
G1 X94.961 Y96.346 E105.71653
G1 X92.824 Y98.484 E105.80051
G1 X93.900 Y102.498 E105.91597
G1 X96.820 Y103.281 E105.99994
G1 X97.895 Y107.296 E106.11540
G1 X95.758 Y109.433 E106.19937
G1 X96.712 Y112.994 E106.30177
G1 X101.453 Y112.994 E106.43347
G1 X102.523 Y111.924 E106.47552
G1 X101.448 Y107.909 E106.59098
G1 X98.528 Y107.127 E106.67495
G1 X97.452 Y103.112 E106.79041
G1 X99.589 Y100.974 E106.87438
G1 X98.514 Y96.959 E106.98984
G1 X95.594 Y96.177 E107.07382
G1 X94.518 Y92.162 E107.18928
G1 X96.655 Y90.024 E107.27325
G1 X102.977 Y88.330 F7800.000
G1 X102.622 Y87.006 E107.31133 F4800.000
G1 X96.524 Y87.006 E107.48073
G1 X97.287 Y89.855 E107.56265
G1 X100.207 Y90.637 E107.64662
G1 X101.283 Y94.652 E107.76208
G1 X99.146 Y96.790 E107.84605
G1 X100.222 Y100.805 E107.96152
G1 X103.142 Y101.587 E108.04549
G1 X104.217 Y105.602 E108.16095
G1 X102.080 Y107.740 E108.24492
G1 X103.156 Y111.755 E108.36038
G1 X106.076 Y112.537 E108.44436
