; generated by Slic3r 1.2.9 on 2018-01-19 at 00:03:58

; external perimeters extrusion width = 0.50mm
; perimeters extrusion width = 0.72mm
; infill extrusion width = 0.72mm
; solid infill extrusion width = 0.72mm
; top infill extrusion width = 0.72mm

M107
M104 S200 ; set temperature
G28 ; home all axes
G1 Z5 F5000 ; lift nozzle

M109 S200 ; wait for temperature to be reached
G21 ; set units to millimeters
G90 ; use absolute coordinates
M82 ; use absolute distances for extrusion
G92 E0
G1 Z0.350 F7800.000
G1 E-2.00000 F2400.00000
G92 E0
G1 X79.915 Y80.753 F7800.000
G1 E2.00000 F2400.00000
G1 X81.668 Y79.274 E2.07096 F1800.000
G1 X83.820 Y78.481 E2.14192
G1 X85.000 Y78.375 E2.17858
G1 X115.000 Y78.375 E3.10682
G1 X117.259 Y78.772 E3.17778
G1 X119.247 Y79.915 E3.24874 F1800.000
G1 X120.726 Y81.668 E3.31970
G1 X121.519 Y83.820 E3.39066
G1 X121.625 Y85.000 E3.42732
G1 X121.625 Y115.000 E4.35555
G1 X121.228 Y117.259 E4.42652
G1 X120.085 Y119.247 E4.49748
G1 X118.332 Y120.726 E4.56844
G1 X116.180 Y121.519 E4.63940
G1 X115.000 Y121.625 E4.67606
G1 X85.000 Y121.625 E5.60429
G1 X82.741 Y121.228 E5.67526
G1 X80.753 Y120.085 E5.74622
G1 X79.274 Y118.332 E5.81718
G1 X78.481 Y116.180 E5.88814
G1 X78.375 Y115.000 E5.92480
G1 X78.375 Y85.000 E6.85303
G1 X78.772 Y82.741 E6.92400
G1 X79.878 Y80.818 E6.99264
G1 E4.99264 F2400.00000
G92 E0
G1 X113.400 Y113.400 F7800.000
G1 E2.00000 F2400.00000
G1 X86.600 Y113.400 E2.82924 F1800.000
G1 X86.600 Y86.600 E3.65848
G1 X113.400 Y86.600 E4.48772
G1 X113.400 Y113.325 E5.31464
G1 X114.025 Y114.025 F7800.000
G1 X85.975 Y114.025 E6.18255 F1800.000
G1 X85.975 Y85.975 E7.05046
G1 X114.025 Y85.975 E7.91838
G1 X114.025 Y113.950 E8.78397
G1 X114.650 Y114.650 F7800.000
G1 X85.350 Y114.650 E9.69055 F1800.000
G1 X85.350 Y85.350 E10.59713
G1 X114.650 Y85.350 E11.50371
G1 X114.650 Y114.575 E12.40797
G1 X114.217 Y114.400 F7800.000
G1 X113.022 Y87.283 F7800.000
G1 X112.717 Y86.978 E12.42138 F1800.000
G1 X111.829 Y86.978 E12.44896
G1 X113.022 Y88.171 E12.50137
G1 X113.022 Y89.059 E12.52895
G1 X110.941 Y86.978 E12.62036
G1 X110.054 Y86.978 E12.64794
G1 X113.022 Y89.946 E12.77836
G1 X113.022 Y90.834 E12.80594
G1 X109.166 Y86.978 E12.97536
G1 X108.279 Y86.978 E13.00293
G1 X113.022 Y91.721 E13.21136
G1 X113.022 Y92.609 E13.23894
G1 X107.391 Y86.978 E13.48636
G1 X106.504 Y86.978 E13.51394
G1 X113.022 Y93.496 E13.80037
G1 X113.022 Y94.384 E13.82795
G1 X105.616 Y86.978 E14.15338
G1 X104.729 Y86.978 E14.18096
G1 X113.022 Y95.271 E14.54539
G1 X113.022 Y96.159 E14.57297
G1 X103.841 Y86.978 E14.97641
G1 X102.954 Y86.978 E15.00399
G1 X113.022 Y97.046 E15.44643
G1 X113.022 Y97.934 E15.47400
G1 X102.066 Y86.978 E15.95545
G1 X101.179 Y86.978 E15.98303
G1 X113.022 Y98.821 E16.50347
G1 X113.022 Y99.709 E16.53105
G1 X100.291 Y86.978 E17.09050
G1 X99.404 Y86.978 E17.11808
G1 X113.022 Y100.596 E17.71653
G1 X113.022 Y101.484 E17.74411
G1 X98.516 Y86.978 E18.38156
G1 X97.629 Y86.978 E18.40914
G1 X113.022 Y102.371 E19.08559
G1 X113.022 Y103.259 E19.11317
G1 X96.741 Y86.978 E19.82863
G1 X95.854 Y86.978 E19.85621
G1 X113.022 Y104.146 E20.61067
G1 X113.022 Y105.034 E20.63825
G1 X94.966 Y86.978 E21.43172
G1 X94.079 Y86.978 E21.45930
G1 X113.022 Y105.921 E22.29176
G1 X113.022 Y106.809 E22.31934
G1 X93.191 Y86.978 E23.19081
G1 X92.303 Y86.978 E23.21839
G1 X113.022 Y107.697 E24.12886
G1 X113.022 Y108.584 E24.15644
G1 X91.416 Y86.978 E25.10592
G1 X90.528 Y86.978 E25.13350
G1 X113.022 Y109.472 E26.12197
G1 X113.022 Y110.359 E26.14955
G1 X89.641 Y86.978 E27.17703
G1 X88.753 Y86.978 E27.20461
G1 X113.022 Y111.247 E28.27110
G1 X113.022 Y112.134 E28.29868
G1 X87.866 Y86.978 E29.40416
G1 X86.998 Y86.998 E29.43113
G1 X113.002 Y113.002 E30.57386
G1 X112.134 Y113.022 E30.60082
G1 X86.978 Y87.866 E31.70631
G1 X86.978 Y88.753 E31.73389
G1 X111.247 Y113.022 E32.80037
G1 X110.359 Y113.022 E32.82795
G1 X86.978 Y89.641 E33.85543
G1 X86.978 Y90.528 E33.88301
G1 X109.472 Y113.022 E34.87149
G1 X108.584 Y113.022 E34.89906
G1 X86.978 Y91.416 E35.84854
G1 X86.978 Y92.304 E35.87612
G1 X107.696 Y113.022 E36.78659
G1 X106.809 Y113.022 E36.81417
G1 X86.978 Y93.191 E37.68564
G1 X86.978 Y94.079 E37.71322
G1 X105.921 Y113.022 E38.54568
G1 X105.034 Y113.022 E38.57326
G1 X86.978 Y94.966 E39.36672
G1 X86.978 Y95.854 E39.39430
G1 X104.146 Y113.022 E40.14876
G1 X103.259 Y113.022 E40.17634
G1 X86.978 Y96.741 E40.89180
G1 X86.978 Y97.629 E40.91938
G1 X102.371 Y113.022 E41.59583
G1 X101.484 Y113.022 E41.62341
G1 X86.978 Y98.516 E42.26086
G1 X86.978 Y99.404 E42.28844
G1 X100.596 Y113.022 E42.88689
G1 X99.709 Y113.022 E42.91447
G1 X86.978 Y100.291 E43.47392
G1 X86.978 Y101.179 E43.50150
G1 X98.821 Y113.022 E44.02194
G1 X97.934 Y113.022 E44.04952
G1 X86.978 Y102.066 E44.53096
G1 X86.978 Y102.954 E44.55854
G1 X97.046 Y113.022 E45.00098
G1 X96.159 Y113.022 E45.02856
G1 X86.978 Y103.841 E45.43199
G1 X86.978 Y104.729 E45.45957
G1 X95.271 Y113.022 E45.82400
G1 X94.384 Y113.022 E45.85158
G1 X86.978 Y105.616 E46.17701
G1 X86.978 Y106.504 E46.20459
G1 X93.496 Y113.022 E46.49102
G1 X92.609 Y113.022 E46.51860
G1 X86.978 Y107.391 E46.76602
G1 X86.978 Y108.279 E46.79360
G1 X91.721 Y113.022 E47.00202
G1 X90.834 Y113.022 E47.02960
G1 X86.978 Y109.166 E47.19902
G1 X86.978 Y110.054 E47.22660
G1 X89.946 Y113.022 E47.35701
G1 X89.058 Y113.022 E47.38459
G1 X86.978 Y110.942 E47.47600
G1 X86.978 Y111.829 E47.50358
G1 X88.171 Y113.022 E47.55599
G1 X87.283 Y113.022 E47.58357
G1 X86.978 Y112.717 E47.59698
G1 Z0.650 F7800.000
G1 X113.550 Y113.550 F7800.000
G1 X86.450 Y113.550 E48.34978 F3600.000
G1 X86.450 Y86.450 E49.10258
G1 X113.550 Y86.450 E49.85539
G1 X113.550 Y113.475 E50.60611
G1 X114.205 Y114.205 F7800.000
G1 X85.795 Y114.205 E51.39527 F3600.000
G1 X85.795 Y85.795 E52.18443
G1 X114.205 Y85.795 E52.97360
G1 X114.205 Y114.130 E53.76068
G1 X114.750 Y114.750 F7800.000
G1 X85.250 Y114.750 E54.30608 F1800.000
G1 X85.250 Y85.250 E54.85148
G1 X114.750 Y85.250 E55.39689
G1 X114.750 Y114.675 E55.94090
G1 X114.317 Y114.500 F7800.000
G1 X112.835 Y113.153 F7800.000
G1 X113.153 Y112.835 E55.95342 F1200.000
G1 X113.153 Y111.907 E55.97927
G1 X111.907 Y113.153 E56.02835
G1 X110.979 Y113.153 E56.05420
G1 X113.153 Y110.979 E56.13984
G1 X113.153 Y110.051 E56.16569
G1 X110.051 Y113.153 E56.28789
G1 X109.123 Y113.153 E56.31375
G1 X113.153 Y109.123 E56.47251
G1 X113.153 Y108.195 E56.49836
G1 X108.195 Y113.153 E56.69368
G1 X107.266 Y113.153 E56.71954
G1 X113.153 Y107.266 E56.95142
G1 X113.153 Y106.338 E56.97728
G1 X106.338 Y113.153 E57.24572
G1 X105.410 Y113.153 E57.27158
G1 X113.153 Y105.410 E57.57658
G1 X113.153 Y104.482 E57.60244
G1 X104.482 Y113.153 E57.94401
G1 X103.554 Y113.153 E57.96986
G1 X113.153 Y103.554 E58.34800
G1 X113.153 Y102.626 E58.37385
G1 X102.626 Y113.153 E58.78854
G1 X101.697 Y113.153 E58.81440
G1 X113.153 Y101.697 E59.26565
G1 X113.153 Y100.769 E59.29151
G1 X100.769 Y113.153 E59.77932
G1 X99.841 Y113.153 E59.80518
G1 X113.153 Y99.841 E60.32956
G1 X113.153 Y98.913 E60.35541
G1 X98.913 Y113.153 E60.91635
G1 X97.985 Y113.153 E60.94221
G1 X113.153 Y97.985 E61.53971
G1 X113.153 Y97.057 E61.56556
G1 X97.057 Y113.153 E62.19963
G1 X96.129 Y113.153 E62.22548
G1 X113.153 Y96.129 E62.89611
G1 X113.153 Y95.200 E62.92196
G1 X95.200 Y113.153 E63.62915
G1 X94.272 Y113.153 E63.65501
G1 X113.153 Y94.272 E64.39876
G1 X113.153 Y93.344 E64.42461
G1 X93.344 Y113.153 E65.20493
G1 X92.416 Y113.153 E65.23078
G1 X113.153 Y92.416 E66.04765
G1 X113.153 Y91.488 E66.07351
G1 X91.488 Y113.153 E66.92694
G1 X90.560 Y113.153 E66.95280
G1 X113.153 Y90.560 E67.84280
G1 X113.153 Y89.631 E67.86865
G1 X89.631 Y113.153 E68.79521
G1 X88.703 Y113.153 E68.82106
G1 X113.153 Y88.703 E69.78419
G1 X113.153 Y87.775 E69.81004
G1 X87.775 Y113.153 E70.80972
G1 X86.867 Y113.133 E70.83503
G1 X113.133 Y86.867 E71.86970
G1 X112.225 Y86.847 E71.89500
G1 X86.847 Y112.225 E72.89468
G1 X86.847 Y111.297 E72.92054
G1 X111.297 Y86.847 E73.88366
G1 X110.368 Y86.847 E73.90951
G1 X86.847 Y110.368 E74.83607
G1 X86.847 Y109.440 E74.86192
G1 X109.440 Y86.847 E75.75192
G1 X108.512 Y86.847 E75.77777
G1 X86.847 Y108.512 E76.63121
G1 X86.847 Y107.584 E76.65706
G1 X107.584 Y86.847 E77.47394
G1 X106.656 Y86.847 E77.49979
G1 X86.847 Y106.656 E78.28010
G1 X86.847 Y105.728 E78.30596
G1 X105.728 Y86.847 E79.04971
G1 X104.800 Y86.847 E79.07556
G1 X86.847 Y104.800 E79.78275
G1 X86.847 Y103.871 E79.80860
G1 X103.871 Y86.847 E80.47923
G1 X102.943 Y86.847 E80.50508
G1 X86.847 Y102.943 E81.13914
G1 X86.847 Y102.015 E81.16500
G1 X102.015 Y86.847 E81.76250
G1 X101.087 Y86.847 E81.78835
G1 X86.847 Y101.087 E82.34929
G1 X86.847 Y100.159 E82.37515
G1 X100.159 Y86.847 E82.89953
G1 X99.231 Y86.847 E82.92538
G1 X86.847 Y99.231 E83.41320
G1 X86.847 Y98.303 E83.43905
G1 X98.303 Y86.847 E83.89030
G1 X97.374 Y86.847 E83.91616
G1 X86.847 Y97.374 E84.33085
G1 X86.847 Y96.446 E84.35670
G1 X96.446 Y86.847 E84.73484
G1 X95.518 Y86.847 E84.76069
G1 X86.847 Y95.518 E85.10226
G1 X86.847 Y94.590 E85.12811
G1 X94.590 Y86.847 E85.43312
G1 X93.662 Y86.847 E85.45897
G1 X86.847 Y93.662 E85.72742
G1 X86.847 Y92.734 E85.75327
G1 X92.734 Y86.847 E85.98516
G1 X91.805 Y86.847 E86.01101
G1 X86.847 Y91.805 E86.20633
G1 X86.847 Y90.877 E86.23218
G1 X90.877 Y86.847 E86.39094
G1 X89.949 Y86.847 E86.41680
G1 X86.847 Y89.949 E86.53900
G1 X86.847 Y89.021 E86.56485
G1 X89.021 Y86.847 E86.65048
G1 X88.093 Y86.847 E86.67634
G1 X86.847 Y88.093 E86.72541
G1 X86.847 Y87.165 E86.75127
G1 X87.165 Y86.847 E86.76378
G1 Z0.950 F7800.000
G1 X113.550 Y113.550 F7800.000
G1 X86.450 Y113.550 E87.51658 F3600.000
G1 X86.450 Y86.450 E88.26938
G1 X113.550 Y86.450 E89.02219
G1 X113.550 Y113.475 E89.77290
G1 X114.205 Y114.205 F7800.000
G1 X85.795 Y114.205 E90.56207 F3600.000
G1 X85.795 Y85.795 E91.35123
G1 X114.205 Y85.795 E92.14039
G1 X114.205 Y114.130 E92.92747
G1 X114.750 Y114.750 F7800.000
G1 X85.250 Y114.750 E93.47288 F1800.000
G1 X85.250 Y85.250 E94.01828
G1 X114.750 Y85.250 E94.56369
G1 X114.750 Y114.675 E95.10770
G1 X114.317 Y114.500 F7800.000
G1 X113.153 Y87.165 F7800.000
G1 X112.835 Y86.847 E95.12022 F1200.000
G1 X111.907 Y86.847 E95.14607
G1 X113.153 Y88.093 E95.19515
G1 X113.153 Y89.021 E95.22100
G1 X110.979 Y86.847 E95.30664
G1 X110.051 Y86.847 E95.33249
G1 X113.153 Y89.949 E95.45469
G1 X113.153 Y90.877 E95.48054
G1 X109.123 Y86.847 E95.63931
G1 X108.195 Y86.847 E95.66516
G1 X113.153 Y91.805 E95.86048
G1 X113.153 Y92.734 E95.88633
G1 X107.266 Y86.847 E96.11822
G1 X106.338 Y86.847 E96.14407
G1 X113.153 Y93.662 E96.41252
G1 X113.153 Y94.590 E96.43837
G1 X105.410 Y86.847 E96.74338
G1 X104.482 Y86.847 E96.76924
G1 X113.153 Y95.518 E97.11081
G1 X113.153 Y96.446 E97.13666
G1 X103.554 Y86.847 E97.51479
G1 X102.626 Y86.847 E97.54065
G1 X113.153 Y97.374 E97.95534
G1 X113.153 Y98.303 E97.98119
G1 X101.697 Y86.847 E98.43245
G1 X100.769 Y86.847 E98.45830
G1 X113.153 Y99.231 E98.94612
G1 X113.153 Y100.159 E98.97198
G1 X99.841 Y86.847 E99.49636
G1 X98.913 Y86.847 E99.52221
G1 X113.153 Y101.087 E100.08315
G1 X113.153 Y102.015 E100.10900
G1 X97.985 Y86.847 E100.70651
G1 X97.057 Y86.847 E100.73236
G1 X113.153 Y102.943 E101.36643
G1 X113.153 Y103.871 E101.39228
G1 X96.129 Y86.847 E102.06291
G1 X95.200 Y86.847 E102.08876
G1 X113.153 Y104.800 E102.79595
G1 X113.153 Y105.728 E102.82181
G1 X94.272 Y86.847 E103.56556
G1 X93.344 Y86.847 E103.59141
G1 X113.153 Y106.656 E104.37172
G1 X113.153 Y107.584 E104.39758
G1 X92.416 Y86.847 E105.21445
G1 X91.488 Y86.847 E105.24031
G1 X113.153 Y108.512 E106.09374
G1 X113.153 Y109.440 E106.11960
G1 X90.560 Y86.847 E107.00959
G1 X89.631 Y86.847 E107.03545
G1 X113.153 Y110.369 E107.96201
G1 X113.153 Y111.297 E107.98786
G1 X88.703 Y86.847 E108.95098
G1 X87.775 Y86.847 E108.97684
G1 X113.153 Y112.225 E109.97652
G1 X113.133 Y113.133 E110.00182
G1 X86.867 Y86.867 E111.03649
G1 X86.847 Y87.775 E111.06180
G1 X112.225 Y113.153 E112.06148
G1 X111.297 Y113.153 E112.08733
G1 X86.847 Y88.703 E113.05046
G1 X86.847 Y89.631 E113.07631
G1 X110.368 Y113.153 E114.00287
G1 X109.440 Y113.153 E114.02872
G1 X86.847 Y90.560 E114.91872
G1 X86.847 Y91.488 E114.94457
G1 X108.512 Y113.153 E115.79801
G1 X107.584 Y113.153 E115.82386
G1 X86.847 Y92.416 E116.64074
G1 X86.847 Y93.344 E116.66659
G1 X106.656 Y113.153 E117.44690
G1 X105.728 Y113.153 E117.47275
G1 X86.847 Y94.272 E118.21650
G1 X86.847 Y95.200 E118.24236
G1 X104.800 Y113.153 E118.94955
G1 X103.871 Y113.153 E118.97540
G1 X86.847 Y96.129 E119.64602
G1 X86.847 Y97.057 E119.67188
G1 X102.943 Y113.153 E120.30594
G1 X102.015 Y113.153 E120.33180
G1 X86.847 Y97.985 E120.92930
G1 X86.847 Y98.913 E120.95515
G1 X101.087 Y113.153 E121.51609
G1 X100.159 Y113.153 E121.54195
G1 X86.847 Y99.841 E122.06632
G1 X86.847 Y100.769 E122.09218
G1 X99.231 Y113.153 E122.57999
G1 X98.303 Y113.153 E122.60585
G1 X86.847 Y101.697 E123.05710
G1 X86.847 Y102.626 E123.08296
G1 X97.374 Y113.153 E123.49765
G1 X96.446 Y113.153 E123.52350
G1 X86.847 Y103.554 E123.90163
G1 X86.847 Y104.482 E123.92749
G1 X95.518 Y113.153 E124.26906
G1 X94.590 Y113.153 E124.29491
G1 X86.847 Y105.410 E124.59992
G1 X86.847 Y106.338 E124.62577
G1 X93.662 Y113.153 E124.89422
G1 X92.734 Y113.153 E124.92007
G1 X86.847 Y107.266 E125.15195
G1 X86.847 Y108.195 E125.17781
G1 X91.805 Y113.153 E125.37313
G1 X90.877 Y113.153 E125.39898
G1 X86.847 Y109.123 E125.55774
G1 X86.847 Y110.051 E125.58360
G1 X89.949 Y113.153 E125.70579
G1 X89.021 Y113.153 E125.73165
G1 X86.847 Y110.979 E125.81728
G1 X86.847 Y111.907 E125.84314
G1 X88.093 Y113.153 E125.89221
G1 X87.165 Y113.153 E125.91806
G1 X86.847 Y112.835 E125.93058
M106 S234.6
G1 Z1.250 F7800.000
G1 X113.550 Y113.550 F7800.000
G1 X86.450 Y113.550 E126.68338 F3600.000
G1 X86.450 Y86.450 E127.43618
G1 X113.550 Y86.450 E128.18898
G1 X113.550 Y113.475 E128.93970
G1 X114.205 Y114.205 F7800.000
G1 X85.795 Y114.205 E129.72887 F3600.000
G1 X85.795 Y85.795 E130.51803
G1 X114.205 Y85.795 E131.30719
G1 X114.205 Y114.130 E132.09427
G1 X114.750 Y114.750 F7800.000
G1 X85.250 Y114.750 E132.63968 F1800.000
G1 X85.250 Y85.250 E133.18508
G1 X114.750 Y85.250 E133.73048
G1 X114.750 Y114.675 E134.27450
G1 X114.317 Y114.500 F7800.000
G1 X112.994 Y108.955 F7800.000
G1 X110.799 Y108.367 E134.33761 F4800.000
G1 X107.860 Y111.306 E134.45308
G1 X108.313 Y112.994 E134.50163
G1 X112.994 Y112.994 E134.63167
G1 X112.994 Y108.955 E134.74388
G1 X112.994 Y102.179 F7800.000
G1 X112.994 Y96.916 E134.89007 F4800.000
G1 X111.248 Y98.662 E134.95865
G1 X112.031 Y101.582 E135.04262
G1 X109.091 Y104.521 E135.15809
G1 X106.171 Y103.739 E135.24206
G1 X103.232 Y106.678 E135.35752
G1 X104.015 Y109.598 E135.44149
G1 X101.076 Y112.537 E135.55695
G1 X98.156 Y111.755 E135.64093
G1 X96.916 Y112.994 E135.68962
G1 X101.544 Y112.994 E135.81818
G1 X104.478 Y110.061 E135.93342
G1 X107.398 Y110.843 E136.01739
G1 X110.337 Y107.904 E136.13285
G1 X109.554 Y104.984 E136.21683
G1 X112.493 Y102.045 E136.33229
G1 X112.994 Y102.179 E136.34669
G1 X112.479 Y91.877 F7800.000
G1 X109.559 Y91.095 E136.43066 F4800.000
G1 X106.620 Y94.034 E136.54612
G1 X107.403 Y96.954 E136.63009
G1 X104.463 Y99.893 E136.74555
G1 X101.543 Y99.111 E136.82953
G1 X98.604 Y102.050 E136.94499
G1 X99.387 Y104.970 E137.02896
G1 X96.448 Y107.909 E137.14442
G1 X93.528 Y107.126 E137.22839
G1 X90.588 Y110.066 E137.34386
G1 X91.362 Y112.994 E137.42800
G1 X95.990 Y112.994 E137.55655
G1 X97.693 Y111.292 E137.62343
G1 X96.910 Y108.372 E137.70740
G1 X99.850 Y105.433 E137.82286
G1 X102.770 Y106.215 E137.90683
G1 X105.709 Y103.276 E138.02230
G1 X104.926 Y100.356 E138.10627
G1 X107.865 Y97.417 E138.22173
G1 X110.785 Y98.199 E138.30570
G1 X112.994 Y95.990 E138.39247
G1 X112.994 Y92.534 E138.48849
G1 X112.942 Y92.340 E138.49406
G1 X112.994 Y92.288 E138.49610
G1 X112.994 Y91.362 E138.52181
G1 X112.479 Y91.877 E138.54203
G1 X108.314 Y87.712 F7800.000
G1 X109.020 Y87.006 E138.56976 F4800.000
G1 X108.095 Y87.006 E138.59547
G1 X107.851 Y87.249 E138.60503
G1 X106.944 Y87.006 E138.63112
G1 X104.392 Y87.006 E138.70201
G1 X101.992 Y89.406 E138.79628
G1 X102.775 Y92.326 E138.88026
G1 X99.835 Y95.265 E138.99572
G1 X96.915 Y94.483 E139.07969
G1 X93.976 Y97.422 E139.19515
